config.ocio
ocio_profile_version: 1

search_path: "luts"