luts/AlexaV3_EI0800_LogC2Video_Rec709_EL_nuke3d.cube
# Alexa conversion LUT, logc2video, itu709. Full in/legal out.
# created by alexalutconv (2.09)
LUT_3D_SIZE 5
DOMAIN_MIN 0.000000 0.000000 0.000000
DOMAIN_MAX 0.903226 0.903226 0.903226
0.062561 0.062561 0.062561
0.200958 0.062561 0.064016
0.587904 0.062561 0.085405
0.918866 0.062561 0.141832
0.918866 0.062561 0.157174
0.062561 0.189382 0.062561
0.176786 0.187340 0.062561
0.584041 0.152122 0.068933
0.918866 0.062561 0.129647
0.918866 0.062561 0.146906
0.062561 0.556100 0.062561
0.062561 0.555745 0.062561
0.521496 0.550489 0.062561
0.918866 0.534462 0.062561
0.918866 0.528158 0.062561
0.062561 0.917365 0.062561
0.062561 0.917212 0.062561
0.062561 0.914956 0.062561
0.861082 0.908239 0.062561
0.918866 0.905665 0.062561
0.062561 0.918866 0.062561
0.062561 0.918866 0.062561
0.062561 0.918866 0.062561
0.826505 0.918866 0.062561
0.918866 0.918866 0.062561
0.062561 0.062561 0.178606
0.196289 0.062561 0.179312
0.587100 0.062561 0.189236
0.918866 0.062561 0.214628
0.918866 0.062561 0.223132
0.062561 0.173392 0.170286
0.171046 0.171046 0.171046
0.583229 0.128463 0.181669
0.918866 0.062561 0.208467
0.918866 0.062561 0.217351
0.062561 0.553472 0.062561
0.062561 0.553115 0.062561
0.520516 0.547817 0.062561
0.918866 0.531654 0.062561
0.918866 0.525293 0.063896
0.062561 0.916233 0.062561
0.062561 0.916080 0.062561
0.062561 0.913819 0.062561
0.860658 0.907088 0.062561
0.918866 0.904508 0.062561
0.062561 0.918866 0.062561
0.062561 0.918866 0.062561
0.062561 0.918866 0.062561
0.826052 0.918866 0.062561
0.918866 0.918866 0.062561
0.062561 0.062561 0.526494
0.085401 0.062561 0.526618
0.575074 0.062561 0.528435
0.918866 0.062561 0.533739
0.918866 0.062561 0.535731
0.062561 0.062561 0.525087
0.062561 0.062561 0.525212
0.571065 0.062561 0.527037
0.918866 0.062561 0.532364
0.918866 0.062561 0.534365
0.062561 0.512172 0.503638
0.062561 0.511765 0.503771
0.505726 0.505726 0.505726
0.918866 0.487158 0.511425
0.918866 0.479787 0.513563
0.062561 0.899311 0.429264
0.062561 0.899152 0.429438
0.062561 0.896819 0.431978
0.854393 0.889869 0.439339
0.918866 0.887204 0.442083
0.062561 0.918866 0.394548
0.062561 0.918866 0.394747
0.062561 0.918866 0.397661
0.819334 0.918866 0.406067
0.918866 0.918866 0.409187
0.062561 0.062561 0.869211
0.062561 0.062561 0.869264
0.536862 0.062561 0.870051
0.918866 0.062561 0.872367
0.918866 0.062561 0.873244
0.062561 0.062561 0.868604
0.062561 0.062561 0.868658
0.532363 0.062561 0.869445
0.918866 0.062561 0.871764
0.918866 0.062561 0.872642
0.062561 0.335578 0.859598
0.062561 0.334763 0.859653
0.457225 0.322382 0.860454
0.918866 0.280376 0.862814
0.918866 0.261413 0.863707
0.062561 0.845914 0.832034
0.062561 0.845738 0.832091
0.062561 0.843151 0.832938
0.835430 0.835430 0.835430
0.918866 0.832465 0.836374
0.062561 0.918866 0.821147
0.062561 0.918866 0.821206
0.062561 0.918866 0.822071
0.798939 0.918866 0.824619
0.918866 0.918866 0.825583
0.062561 0.062561 0.918866
0.062561 0.062561 0.918866
0.521089 0.062561 0.918866
0.918866 0.062561 0.918866
0.918866 0.062561 0.918866
0.062561 0.062561 0.918866
0.062561 0.062561 0.918866
0.516358 0.062561 0.918866
0.918866 0.062561 0.918866
0.918866 0.062561 0.918866
0.062561 0.190845 0.918866
0.062561 0.188828 0.918866
0.436368 0.154164 0.918866
0.914236 0.062561 0.918866
0.918866 0.062561 0.918866
0.062561 0.824059 0.918866
0.062561 0.823876 0.918866
0.062561 0.821170 0.918866
0.828031 0.813094 0.918866
0.918866 0.809990 0.918866
0.062561 0.918866 0.912610
0.062561 0.918866 0.912660
0.062561 0.918866 0.913385
0.790955 0.918852 0.915519
0.916327 0.916327 0.916327
