luts/AlexaV3_EI0800_LogC2Video_Rec709_EL_nuke3d.cube
# Alexa conversion LUT, logc2video, itu709. Full in/legal out.
# created by alexalutconv (2.09)
LUT_3D_SIZE 32
0.062561 0.062561 0.062561
0.062561 0.062561 0.062561
0.065555 0.062561 0.062583
0.085954 0.062561 0.062731
0.109868 0.062561 0.062904
0.137705 0.062561 0.063143
0.167692 0.062561 0.063494
0.200958 0.062561 0.064016
0.238416 0.062561 0.064788
0.284553 0.062561 0.066043
0.339796 0.062561 0.068041
0.400573 0.062561 0.070941
0.463421 0.062561 0.074803
0.525869 0.062561 0.079602
0.587904 0.062561 0.085405
0.649292 0.062561 0.092246
0.709769 0.062561 0.100131
0.769057 0.062561 0.109036
0.826872 0.062561 0.118501
0.882723 0.062561 0.127663
0.918866 0.062561 0.135536
0.918866 0.062561 0.141832
0.918866 0.062561 0.146733
0.918866 0.062561 0.150426
0.918866 0.062561 0.153092
0.918866 0.062561 0.154917
0.918866 0.062561 0.156083
0.918866 0.062561 0.156774
0.918866 0.062561 0.157174
0.918866 0.062561 0.157467
0.918866 0.062561 0.157656
0.918866 0.062561 0.157656
0.062561 0.062561 0.062561
0.062561 0.062561 0.062561
0.065555 0.062561 0.062583
0.085954 0.062561 0.062731
0.109868 0.062561 0.062904
0.137705 0.062561 0.063143
0.167692 0.062561 0.063494
0.200958 0.062561 0.064016
0.238416 0.062561 0.064788
0.284553 0.062561 0.066043
0.339796 0.062561 0.068041
0.400573 0.062561 0.070941
0.463421 0.062561 0.074803
0.525869 0.062561 0.079602
0.587904 0.062561 0.085405
0.649292 0.062561 0.092246
0.709769 0.062561 0.100131
0.769057 0.062561 0.109036
0.826872 0.062561 0.118501
0.882723 0.062561 0.127663
0.918866 0.062561 0.135536
0.918866 0.062561 0.141832
0.918866 0.062561 0.146733
0.918866 0.062561 0.150426
0.918866 0.062561 0.153092
0.918866 0.062561 0.154917
0.918866 0.062561 0.156083
0.918866 0.062561 0.156774
0.918866 0.062561 0.157174
0.918866 0.062561 0.157467
0.918866 0.062561 0.157656
0.918866 0.062561 0.157656
0.062561 0.065148 0.062561
0.062561 0.065148 0.062561
0.064746 0.065080 0.062561
0.085145 0.064616 0.062561
0.109059 0.064073 0.062658
0.137117 0.063326 0.062897
0.167258 0.062561 0.063249
0.200630 0.062561 0.063770
0.238165 0.062561 0.064542
0.284364 0.062561 0.065797
0.339655 0.062561 0.067795
0.400464 0.062561 0.070695
0.463336 0.062561 0.074557
0.525800 0.062561 0.079357
0.587846 0.062561 0.085159
0.649243 0.062561 0.092000
0.709727 0.062561 0.099885
0.769021 0.062561 0.108791
0.826840 0.062561 0.118279
0.882694 0.062561 0.127463
0.918866 0.062561 0.135354
0.918866 0.062561 0.141661
0.918866 0.062561 0.146571
0.918866 0.062561 0.150269
0.918866 0.062561 0.152941
0.918866 0.062561 0.154768
0.918866 0.062561 0.155936
0.918866 0.062561 0.156628
0.918866 0.062561 0.157029
0.918866 0.062561 0.157321
0.918866 0.062561 0.157511
0.918866 0.062561 0.157511
0.062561 0.082770 0.062561
0.062561 0.082770 0.062561
0.062561 0.082702 0.062561
0.079634 0.082239 0.062561
0.103548 0.081696 0.062561
0.133008 0.080949 0.062561
0.164246 0.079848 0.062561
0.198371 0.078217 0.062561
0.236446 0.075799 0.062866
0.283072 0.071872 0.064120
0.338687 0.065617 0.066118
0.399726 0.062561 0.069018
0.462756 0.062561 0.072881
0.525329 0.062561 0.077680
0.587455 0.062561 0.083483
0.648912 0.062561 0.090324
0.709442 0.062561 0.098209
0.768771 0.062561 0.107114
0.826619 0.062561 0.116742
0.882497 0.062561 0.126090
0.918866 0.062561 0.134100
0.918866 0.062561 0.140491
0.918866 0.062561 0.145460
0.918866 0.062561 0.149200
0.918866 0.062561 0.151899
0.918866 0.062561 0.153745
0.918866 0.062561 0.154925
0.918866 0.062561 0.155624
0.918866 0.062561 0.156029
0.918866 0.062561 0.156324
0.918866 0.062561 0.156516
0.918866 0.062561 0.156516
0.062561 0.103429 0.062561
0.062561 0.103429 0.062561
0.062561 0.103362 0.062561
0.073173 0.102898 0.062561
0.097087 0.102354 0.062561
0.127936 0.101608 0.062561
0.160603 0.100507 0.062561
0.195669 0.098875 0.062561
0.234405 0.096459 0.062561
0.281545 0.092531 0.062561
0.337546 0.086277 0.064153
0.398856 0.077198 0.067054
0.462073 0.065108 0.070916
0.524776 0.062561 0.075715
0.586996 0.062561 0.081518
0.648524 0.062561 0.088359
0.709107 0.062561 0.096244
0.768478 0.062561 0.105149
0.826361 0.062561 0.114903
0.882264 0.062561 0.124451
0.918866 0.062561 0.132606
0.918866 0.062561 0.139099
0.918866 0.062561 0.144141
0.918866 0.062561 0.147931
0.918866 0.062561 0.150665
0.918866 0.062561 0.152534
0.918866 0.062561 0.153727
0.918866 0.062561 0.154435
0.918866 0.062561 0.154844
0.918866 0.062561 0.155143
0.918866 0.062561 0.155336
0.918866 0.062561 0.155336
0.062561 0.129434 0.062561
0.062561 0.129434 0.062561
0.062561 0.129381 0.062561
0.064295 0.129011 0.062561
0.088209 0.128576 0.062561
0.120437 0.127976 0.062561
0.155382 0.127081 0.062561
0.191859 0.125739 0.062561
0.231553 0.123710 0.062561
0.279425 0.120304 0.062561
0.335968 0.114566 0.062561
0.397657 0.105587 0.064354
0.461132 0.093495 0.068216
0.524014 0.078473 0.073015
0.586364 0.062561 0.078818
0.647988 0.062561 0.085659
0.708646 0.062561 0.093544
0.768076 0.062561 0.102449
0.826005 0.062561 0.112302
0.881946 0.062561 0.122146
0.918866 0.062561 0.130512
0.918866 0.062561 0.137153
0.918866 0.062561 0.142298
0.918866 0.062561 0.146160
0.918866 0.062561 0.148943
0.918866 0.062561 0.150844
0.918866 0.062561 0.152058
0.918866 0.062561 0.152777
0.918866 0.062561 0.153193
0.918866 0.062561 0.153497
0.918866 0.062561 0.153693
0.918866 0.062561 0.153693
0.062561 0.157855 0.062561
0.062561 0.157855 0.062561
0.062561 0.157814 0.062561
0.062561 0.157541 0.062561
0.075109 0.157220 0.062561
0.107970 0.156777 0.062561
0.147151 0.156120 0.062561
0.186011 0.155138 0.062561
0.227242 0.153665 0.062561
0.276249 0.151226 0.062561
0.333619 0.147214 0.062561
0.395877 0.141077 0.062561
0.459738 0.132220 0.064233
0.522888 0.119806 0.069031
0.585430 0.102194 0.074834
0.647198 0.080780 0.081675
0.707966 0.062561 0.089561
0.767482 0.062561 0.098466
0.825478 0.062561 0.108335
0.881475 0.062561 0.118622
0.918866 0.062561 0.127329
0.918866 0.062561 0.134204
0.918866 0.062561 0.139511
0.918866 0.062561 0.143486
0.918866 0.062561 0.146345
0.918866 0.062561 0.148297
0.918866 0.062561 0.149543
0.918866 0.062561 0.150280
0.918866 0.062561 0.150707
0.918866 0.062561 0.151018
0.918866 0.062561 0.151220
0.918866 0.062561 0.151220
0.062561 0.189382 0.062561
0.062561 0.189382 0.062561
0.062561 0.189352 0.062561
0.062561 0.189145 0.062561
0.062561 0.188903 0.062561
0.088566 0.188569 0.062561
0.133497 0.188075 0.062561
0.176786 0.187340 0.062561
0.220608 0.186241 0.062561
0.271434 0.184435 0.062561
0.330089 0.181501 0.062561
0.393215 0.177106 0.062561
0.457661 0.170976 0.062561
0.521210 0.162856 0.063131
0.584041 0.152122 0.068933
0.646024 0.137772 0.075774
0.706957 0.117805 0.083659
0.766600 0.090264 0.092565
0.824699 0.062561 0.102434
0.880777 0.062561 0.113101
0.918866 0.062561 0.122384
0.918866 0.062561 0.129647
0.918866 0.062561 0.135222
0.918866 0.062561 0.139381
0.918866 0.062561 0.142365
0.918866 0.062561 0.144398
0.918866 0.062561 0.145695
0.918866 0.062561 0.146462
0.918866 0.062561 0.146906
0.918866 0.062561 0.147229
0.918866 0.062561 0.147439
0.918866 0.062561 0.147439
0.062561 0.224881 0.062561
0.062561 0.224881 0.062561
0.062561 0.224858 0.062561
0.062561 0.224700 0.062561
0.062561 0.224515 0.062561
0.062561 0.224261 0.062561
0.108299 0.223885 0.062561
0.161564 0.223326 0.062561
0.210154 0.222493 0.062561
0.264036 0.221130 0.062561
0.324741 0.218931 0.062561
0.389216 0.215676 0.062561
0.454554 0.211217 0.062561
0.518709 0.205462 0.062561
0.581974 0.198147 0.062561
0.644278 0.188942 0.067030
0.705455 0.177381 0.074915
0.765290 0.162742 0.083820
0.823541 0.143716 0.093690
0.879741 0.117490 0.104394
0.918866 0.085993 0.114461
0.918866 0.062561 0.122420
0.918866 0.062561 0.128464
0.918866 0.062561 0.132941
0.918866 0.062561 0.136139
0.918866 0.062561 0.138311
0.918866 0.062561 0.139693
0.918866 0.062561 0.140510
0.918866 0.062561 0.140981
0.918866 0.062561 0.141326
0.918866 0.062561 0.141549
0.918866 0.062561 0.141549
0.062561 0.268606 0.062561
0.062561 0.268606 0.062561
0.062561 0.268589 0.062561
0.062561 0.268470 0.062561
0.062561 0.268331 0.062561
0.062561 0.268139 0.062561
0.062561 0.267857 0.062561
0.130685 0.267437 0.062561
0.191182 0.266812 0.062561
0.251257 0.265793 0.062561
0.315735 0.264157 0.062561
0.382570 0.261753 0.062561
0.449430 0.258495 0.062561
0.514603 0.254353 0.062561
0.578588 0.249197 0.062561
0.641424 0.242891 0.062561
0.703006 0.235284 0.062561
0.763155 0.226194 0.069614
0.821654 0.215393 0.079484
0.878052 0.202622 0.090188
0.918866 0.189210 0.100347
0.918866 0.176283 0.109134
0.918866 0.164373 0.116196
0.918866 0.153967 0.121355
0.918866 0.145447 0.125001
0.918866 0.139003 0.127461
0.918866 0.134571 0.129021
0.918866 0.131812 0.129940
0.918866 0.130167 0.130470
0.918866 0.128942 0.130857
0.918866 0.128137 0.131107
0.918866 0.128137 0.131107
0.062561 0.320962 0.062561
0.062561 0.320962 0.062561
0.062561 0.320949 0.062561
0.062561 0.320860 0.062561
0.062561 0.320755 0.062561
0.062561 0.320611 0.062561
0.062561 0.320399 0.062561
0.062561 0.320085 0.062561
0.152864 0.319618 0.062561
0.228452 0.318857 0.062561
0.300470 0.317639 0.062561
0.371580 0.315858 0.062561
0.441065 0.313459 0.062561
0.507948 0.310437 0.062561
0.573126 0.306718 0.062561
0.636835 0.302239 0.062561
0.699074 0.296939 0.062561
0.759732 0.290763 0.062561
0.818633 0.283662 0.062561
0.875353 0.275622 0.067564
0.918866 0.267626 0.077723
0.918866 0.260389 0.086510
0.918866 0.254155 0.093772
0.918866 0.249069 0.099489
0.918866 0.245165 0.103754
0.918866 0.242373 0.106738
0.918866 0.240535 0.108674
0.918866 0.239425 0.109831
0.918866 0.238775 0.110505
0.918866 0.238297 0.110998
0.918866 0.237985 0.111316
0.918866 0.237985 0.111316
0.062561 0.378561 0.062561
0.062561 0.378561 0.062561
0.062561 0.378551 0.062561
0.062561 0.378483 0.062561
0.062561 0.378404 0.062561
0.062561 0.378294 0.062561
0.062561 0.378132 0.062561
0.062561 0.377892 0.062561
0.062561 0.377536 0.062561
0.186959 0.376956 0.062561
0.275786 0.376030 0.062561
0.354612 0.374678 0.062561
0.428437 0.372866 0.062561
0.498023 0.370594 0.062561
0.565042 0.367816 0.062561
0.630074 0.364497 0.062561
0.693301 0.360608 0.062561
0.754719 0.356133 0.062561
0.814215 0.351063 0.062561
0.871409 0.345426 0.062561
0.918866 0.339934 0.062561
0.918866 0.335064 0.062561
0.918866 0.330952 0.062561
0.918866 0.327654 0.066652
0.918866 0.325159 0.070916
0.918866 0.323394 0.073901
0.918866 0.322241 0.075836
0.918866 0.321549 0.076994
0.918866 0.321144 0.077667
0.918866 0.320848 0.078161
0.918866 0.320655 0.078481
0.918866 0.320655 0.078481
0.062561 0.438125 0.062561
0.062561 0.438125 0.062561
0.062561 0.438117 0.062561
0.062561 0.438063 0.062561
0.062561 0.438000 0.062561
0.062561 0.437915 0.062561
0.062561 0.437787 0.062561
0.062561 0.437598 0.062561
0.062561 0.437318 0.062561
0.086535 0.436863 0.062561
0.236053 0.436137 0.062561
0.329720 0.435078 0.062561
0.410601 0.433662 0.062561
0.484272 0.431892 0.062561
0.553966 0.429735 0.062561
0.620876 0.427170 0.062561
0.685485 0.424181 0.062561
0.747953 0.420763 0.062561
0.808268 0.416921 0.062561
0.866110 0.412687 0.062561
0.915558 0.408602 0.062561
0.918866 0.405013 0.062561
0.918866 0.402008 0.062561
0.918866 0.399616 0.062561
0.918866 0.397816 0.062561
0.918866 0.396548 0.062561
0.918866 0.395722 0.062561
0.918866 0.395227 0.062561
0.918866 0.394939 0.062561
0.918866 0.394727 0.062561
0.918866 0.394589 0.062561
0.918866 0.394589 0.062561
0.062561 0.497308 0.062561
0.062561 0.497308 0.062561
0.062561 0.497302 0.062561
0.062561 0.497258 0.062561
0.062561 0.497208 0.062561
0.062561 0.497137 0.062561
0.062561 0.497034 0.062561
0.062561 0.496881 0.062561
0.062561 0.496654 0.062561
0.062561 0.496286 0.062561
0.163305 0.495697 0.062561
0.293762 0.494841 0.062561
0.386497 0.493697 0.062561
0.466233 0.492269 0.062561
0.539670 0.490534 0.062561
0.609121 0.488475 0.062561
0.675561 0.486084 0.062561
0.739401 0.483360 0.062561
0.800774 0.480310 0.062561
0.859448 0.476967 0.062561
0.909497 0.473757 0.062561
0.918866 0.470952 0.062561
0.918866 0.468613 0.062561
0.918866 0.466757 0.062561
0.918866 0.465365 0.062561
0.918866 0.464387 0.062561
0.918866 0.463750 0.062561
0.918866 0.463369 0.062561
0.918866 0.463147 0.062561
0.918866 0.462984 0.062561
0.918866 0.462878 0.062561
0.918866 0.462878 0.062561
0.062561 0.556100 0.062561
0.062561 0.556100 0.062561
0.062561 0.556094 0.062561
0.062561 0.556058 0.062561
0.062561 0.556016 0.062561
0.062561 0.555958 0.062561
0.062561 0.555872 0.062561
0.062561 0.555745 0.062561
0.062561 0.555557 0.062561
0.062561 0.555251 0.062561
0.062561 0.554762 0.062561
0.237592 0.554052 0.062561
0.353590 0.553105 0.062561
0.442751 0.551923 0.062561
0.521496 0.550489 0.062561
0.594382 0.548790 0.062561
0.663225 0.546821 0.062561
0.728832 0.544583 0.062561
0.791553 0.542085 0.062561
0.851275 0.539354 0.062561
0.902077 0.536739 0.062561
0.918866 0.534462 0.062561
0.918866 0.532567 0.062561
0.918866 0.531067 0.062561
0.918866 0.529943 0.062561
0.918866 0.529156 0.062561
0.918866 0.528643 0.062561
0.918866 0.528336 0.062561
0.918866 0.528158 0.062561
0.918866 0.528026 0.062561
0.918866 0.527941 0.062561
0.918866 0.527941 0.062561
0.062561 0.614279 0.062561
0.062561 0.614279 0.062561
0.062561 0.614274 0.062561
0.062561 0.614244 0.062561
0.062561 0.614208 0.062561
0.062561 0.614159 0.062561
0.062561 0.614086 0.062561
0.062561 0.613979 0.062561
0.062561 0.613819 0.062561
0.062561 0.613560 0.062561
0.062561 0.613147 0.062561
0.112077 0.612546 0.062561
0.306923 0.611744 0.062561
0.412125 0.610746 0.062561
0.498622 0.609535 0.062561
0.576184 0.608102 0.062561
0.648171 0.606444 0.062561
0.716035 0.604562 0.062561
0.780444 0.602464 0.062561
0.841468 0.600176 0.062561
0.893194 0.597990 0.062561
0.918866 0.596089 0.062561
0.918866 0.594510 0.062561
0.918866 0.593262 0.062561
0.918866 0.592328 0.062561
0.918866 0.591673 0.062561
0.918866 0.591248 0.062561
0.918866 0.590993 0.062561
0.918866 0.590844 0.062561
0.918866 0.590736 0.062561
0.918866 0.590665 0.062561
0.918866 0.590665 0.062561
0.062561 0.671595 0.062561
0.062561 0.671595 0.062561
0.062561 0.671591 0.062561
0.062561 0.671564 0.062561
0.062561 0.671534 0.062561
0.062561 0.671491 0.062561
0.062561 0.671428 0.062561
0.062561 0.671336 0.062561
0.062561 0.671198 0.062561
0.062561 0.670975 0.062561
0.062561 0.670619 0.062561
0.062561 0.670102 0.062561
0.232530 0.669413 0.062561
0.371402 0.668554 0.062561
0.469891 0.667513 0.062561
0.553944 0.666283 0.062561
0.630060 0.664860 0.062561
0.700790 0.663247 0.062561
0.767302 0.661451 0.062561
0.829918 0.659495 0.062561
0.882768 0.657629 0.062561
0.918866 0.656008 0.062561
0.918866 0.654663 0.062561
0.918866 0.653601 0.062561
0.918866 0.652807 0.062561
0.918866 0.652250 0.062561
0.918866 0.651889 0.062561
0.918866 0.651672 0.062561
0.918866 0.651547 0.062561
0.918866 0.651454 0.062561
0.918866 0.651394 0.062561
0.918866 0.651394 0.062561
0.062561 0.727783 0.062561
0.062561 0.727783 0.062561
0.062561 0.727780 0.062561
0.062561 0.727757 0.062561
0.062561 0.727730 0.062561
0.062561 0.727693 0.062561
0.062561 0.727638 0.062561
0.062561 0.727557 0.062561
0.062561 0.727437 0.062561
0.062561 0.727242 0.062561
0.062561 0.726931 0.062561
0.062561 0.726479 0.062561
0.062561 0.725877 0.062561
0.314255 0.725128 0.062561
0.433494 0.724219 0.062561
0.526894 0.723147 0.062561
0.608500 0.721907 0.062561
0.682876 0.720502 0.062561
0.751989 0.718940 0.062561
0.816542 0.717239 0.062561
0.870737 0.715618 0.062561
0.913404 0.714212 0.062561
0.918866 0.713046 0.062561
0.918866 0.712126 0.062561
0.918866 0.711438 0.062561
0.918866 0.710956 0.062561
0.918866 0.710643 0.062561
0.918866 0.710456 0.062561
0.918866 0.710347 0.062561
0.918866 0.710267 0.062561
0.918866 0.710215 0.062561
0.918866 0.710215 0.062561
0.062561 0.782576 0.062561
0.062561 0.782576 0.062561
0.062561 0.782573 0.062561
0.062561 0.782553 0.062561
0.062561 0.782529 0.062561
0.062561 0.782497 0.062561
0.062561 0.782448 0.062561
0.062561 0.782376 0.062561
0.062561 0.782270 0.062561
0.062561 0.782098 0.062561
0.062561 0.781822 0.062561
0.062561 0.781422 0.062561
0.062561 0.780890 0.062561
0.219844 0.780226 0.062561
0.386161 0.779424 0.062561
0.493935 0.778476 0.062561
0.583011 0.777381 0.062561
0.662057 0.776140 0.062561
0.734382 0.774762 0.062561
0.801271 0.773263 0.062561
0.857068 0.771835 0.062561
0.900814 0.770596 0.062561
0.918866 0.769570 0.062561
0.918866 0.768760 0.062561
0.918866 0.768156 0.062561
0.918866 0.767732 0.062561
0.918866 0.767457 0.062561
0.918866 0.767293 0.062561
0.918866 0.767197 0.062561
0.918866 0.767127 0.062561
0.918866 0.767081 0.062561
0.918866 0.767081 0.062561
0.062561 0.835508 0.062561
0.062561 0.835508 0.062561
0.062561 0.835505 0.062561
0.062561 0.835486 0.062561
0.062561 0.835465 0.062561
0.062561 0.835436 0.062561
0.062561 0.835392 0.062561
0.062561 0.835328 0.062561
0.062561 0.835233 0.062561
0.062561 0.835078 0.062561
0.062561 0.834832 0.062561
0.062561 0.834474 0.062561
0.062561 0.833997 0.062561
0.062561 0.833404 0.062561
0.320833 0.832685 0.062561
0.453492 0.831837 0.062561
0.553085 0.830858 0.062561
0.638162 0.829749 0.062561
0.714448 0.828518 0.062561
0.784136 0.827178 0.062561
0.841815 0.825904 0.062561
0.886815 0.824799 0.062561
0.918866 0.823883 0.062561
0.918866 0.823162 0.062561
0.918866 0.822623 0.062561
0.918866 0.822245 0.062561
0.918866 0.822000 0.062561
0.918866 0.821854 0.062561
0.918866 0.821768 0.062561
0.918866 0.821706 0.062561
0.918866 0.821666 0.062561
0.918866 0.821666 0.062561
0.062561 0.880995 0.062561
0.062561 0.880995 0.062561
0.062561 0.880992 0.062561
0.062561 0.880976 0.062561
0.062561 0.880956 0.062561
0.062561 0.880930 0.062561
0.062561 0.880890 0.062561
0.062561 0.880831 0.062561
0.062561 0.880744 0.062561
0.062561 0.880603 0.062561
0.062561 0.880377 0.062561
0.062561 0.880050 0.062561
0.062561 0.879614 0.062561
0.062561 0.879072 0.062561
0.227670 0.878415 0.062561
0.408651 0.877640 0.062561
0.521948 0.876745 0.062561
0.614010 0.875732 0.062561
0.694624 0.874608 0.062561
0.767269 0.873386 0.062561
0.826894 0.872223 0.062561
0.873174 0.871215 0.062561
0.908518 0.870381 0.062561
0.918866 0.869723 0.062561
0.918866 0.869232 0.062561
0.918866 0.868888 0.062561
0.918866 0.868665 0.062561
0.918866 0.868531 0.062561
0.918866 0.868453 0.062561
0.918866 0.868396 0.062561
0.918866 0.868359 0.062561
0.918866 0.868359 0.062561
0.062561 0.917365 0.062561
0.062561 0.917365 0.062561
0.062561 0.917363 0.062561
0.062561 0.917347 0.062561
0.062561 0.917329 0.062561
0.062561 0.917304 0.062561
0.062561 0.917267 0.062561
0.062561 0.917212 0.062561
0.062561 0.917131 0.062561
0.062561 0.916999 0.062561
0.062561 0.916788 0.062561
0.062561 0.916482 0.062561
0.062561 0.916075 0.062561
0.062561 0.915569 0.062561
0.062561 0.914956 0.062561
0.362036 0.914233 0.062561
0.492287 0.913397 0.062561
0.591764 0.912453 0.062561
0.676682 0.911403 0.062561
0.752163 0.910263 0.062561
0.813614 0.909179 0.062561
0.861082 0.908239 0.062561
0.897221 0.907462 0.062561
0.918866 0.906849 0.062561
0.918866 0.906391 0.062561
0.918866 0.906070 0.062561
0.918866 0.905862 0.062561
0.918866 0.905738 0.062561
0.918866 0.905665 0.062561
0.918866 0.905612 0.062561
0.918866 0.905578 0.062561
0.918866 0.905578 0.062561
0.062561 0.918866 0.062561
0.062561 0.918866 0.062561
0.062561 0.918866 0.062561
0.062561 0.918866 0.062561
0.062561 0.918866 0.062561
0.062561 0.918866 0.062561
0.062561 0.918866 0.062561
0.062561 0.918866 0.062561
0.062561 0.918866 0.062561
0.062561 0.918866 0.062561
0.062561 0.918866 0.062561
0.062561 0.918866 0.062561
0.062561 0.918866 0.062561
0.062561 0.918866 0.062561
0.062561 0.918866 0.062561
0.314378 0.918866 0.062561
0.465329 0.918866 0.062561
0.572266 0.918866 0.062561
0.661229 0.918866 0.062561
0.739282 0.918866 0.062561
0.802358 0.918866 0.062561
0.850867 0.918866 0.062561
0.887701 0.918866 0.062561
0.914989 0.918866 0.062561
0.918866 0.918866 0.062561
0.918866 0.918866 0.062561
0.918866 0.918866 0.062561
0.918866 0.918866 0.062561
0.918866 0.918866 0.062561
0.918866 0.918866 0.062561
0.918866 0.918866 0.062561
0.918866 0.918866 0.062561
0.062561 0.918866 0.062561
0.062561 0.918866 0.062561
0.062561 0.918866 0.062561
0.062561 0.918866 0.062561
0.062561 0.918866 0.062561
0.062561 0.918866 0.062561
0.062561 0.918866 0.062561
0.062561 0.918866 0.062561
0.062561 0.918866 0.062561
0.062561 0.918866 0.062561
0.062561 0.918866 0.062561
0.062561 0.918866 0.062561
0.062561 0.918866 0.062561
0.062561 0.918866 0.062561
0.062561 0.918866 0.062561
0.266356 0.918866 0.062561
0.442126 0.918866 0.062561
0.556095 0.918866 0.062561
0.648621 0.918866 0.062561
0.728868 0.918866 0.062561
0.793302 0.918866 0.062561
0.842675 0.918866 0.062561
0.880081 0.918866 0.062561
0.907752 0.918866 0.062561
0.918866 0.918866 0.062561
0.918866 0.918866 0.062561
0.918866 0.918866 0.062561
0.918866 0.918866 0.062561
0.918866 0.918866 0.062561
0.918866 0.918866 0.062561
0.918866 0.918866 0.062561
0.918866 0.918866 0.062561
0.062561 0.918866 0.062561
0.062561 0.918866 0.062561
0.062561 0.918866 0.062561
0.062561 0.918866 0.062561
0.062561 0.918866 0.062561
0.062561 0.918866 0.062561
0.062561 0.918866 0.062561
0.062561 0.918866 0.062561
0.062561 0.918866 0.062561
0.062561 0.918866 0.062561
0.062561 0.918866 0.062561
0.062561 0.918866 0.062561
0.062561 0.918866 0.062561
0.062561 0.918866 0.062561
0.062561 0.918866 0.062561
0.218578 0.918866 0.062561
0.423417 0.918866 0.062561
0.543506 0.918866 0.062561
0.638944 0.918866 0.062561
0.720934 0.918866 0.062561
0.786435 0.918866 0.062561
0.836478 0.918866 0.062561
0.874324 0.918866 0.062561
0.902291 0.918866 0.062561
0.918866 0.918866 0.062561
0.918866 0.918866 0.062561
0.918866 0.918866 0.062561
0.918866 0.918866 0.062561
0.918866 0.918866 0.062561
0.918866 0.918866 0.062561
0.918866 0.918866 0.062561
0.918866 0.918866 0.062561
0.062561 0.918866 0.062561
0.062561 0.918866 0.062561
0.062561 0.918866 0.062561
0.062561 0.918866 0.062561
0.062561 0.918866 0.062561
0.062561 0.918866 0.062561
0.062561 0.918866 0.062561
0.062561 0.918866 0.062561
0.062561 0.918866 0.062561
0.062561 0.918866 0.062561
0.062561 0.918866 0.062561
0.062561 0.918866 0.062561
0.062561 0.918866 0.062561
0.062561 0.918866 0.062561
0.062561 0.918866 0.062561
0.171502 0.918866 0.062561
0.409471 0.918866 0.062561
0.534400 0.918866 0.062561
0.632024 0.918866 0.062561
0.715296 0.918866 0.062561
0.781569 0.918866 0.062561
0.832095 0.918866 0.062561
0.870258 0.918866 0.062561
0.898436 0.918866 0.062561
0.918519 0.918866 0.062561
0.918866 0.918866 0.062561
0.918866 0.918866 0.062561
0.918866 0.918866 0.062561
0.918866 0.918866 0.062561
0.918866 0.918866 0.062561
0.918866 0.918866 0.062561
0.918866 0.918866 0.062561
0.062561 0.918866 0.062561
0.062561 0.918866 0.062561
0.062561 0.918866 0.062561
0.062561 0.918866 0.062561
0.062561 0.918866 0.062561
0.062561 0.918866 0.062561
0.062561 0.918866 0.062561
0.062561 0.918866 0.062561
0.062561 0.918866 0.062561
0.062561 0.918866 0.062561
0.062561 0.918866 0.062561
0.062561 0.918866 0.062561
0.062561 0.918866 0.062561
0.062561 0.918866 0.062561
0.062561 0.918866 0.062561
0.124994 0.918866 0.062561
0.399990 0.918866 0.062561
0.528353 0.918866 0.062561
0.627468 0.918866 0.062561
0.711598 0.918866 0.062561
0.778385 0.918866 0.062561
0.829231 0.918866 0.062561
0.867603 0.918866 0.062561
0.895921 0.918866 0.062561
0.916097 0.918866 0.062561
0.918866 0.918866 0.062561
0.918866 0.918866 0.062561
0.918866 0.918866 0.062561
0.918866 0.918866 0.062561
0.918866 0.918866 0.062561
0.918866 0.918866 0.062561
0.918866 0.918866 0.062561
0.062561 0.918866 0.062561
0.062561 0.918866 0.062561
0.062561 0.918866 0.062561
0.062561 0.918866 0.062561
0.062561 0.918866 0.062561
0.062561 0.918866 0.062561
0.062561 0.918866 0.062561
0.062561 0.918866 0.062561
0.062561 0.918866 0.062561
0.062561 0.918866 0.062561
0.062561 0.918866 0.062561
0.062561 0.918866 0.062561
0.062561 0.918866 0.062561
0.062561 0.918866 0.062561
0.062561 0.918866 0.062561
0.083257 0.918866 0.062561
0.394137 0.918866 0.062561
0.524679 0.918866 0.062561
0.624715 0.918866 0.062561
0.709370 0.918866 0.062561
