luts/AlexaV3_EI0800_LogC2Video_Rec709_EL_nuke3d.cube
# Alexa conversion LUT, logc2video, itu709. Full in/legal out.
# created by alexalutconv (2.09)
LUT_3D_SIZE 8
DOMAIN_MIN 0.000000 0.000000 0.000000
DOMAIN_MAX 0.903226 0.903226 0.903226
0.062561 0.062561 0.062561
0.109868 0.062561 0.062904
0.238416 0.062561 0.064788
0.463421 0.062561 0.074803
0.709769 0.062561 0.100131
0.918866 0.062561 0.135536
0.918866 0.062561 0.153092
0.918866 0.062561 0.157174
0.062561 0.103429 0.062561
0.097087 0.102354 0.062561
0.234405 0.096459 0.062561
0.462073 0.065108 0.070916
0.709107 0.062561 0.096244
0.918866 0.062561 0.132606
0.918866 0.062561 0.150665
0.918866 0.062561 0.154844
0.062561 0.224881 0.062561
0.062561 0.224515 0.062561
0.210154 0.222493 0.062561
0.454554 0.211217 0.062561
0.705455 0.177381 0.074915
0.918866 0.085993 0.114461
0.918866 0.062561 0.136139
0.918866 0.062561 0.140981
0.062561 0.438125 0.062561
0.062561 0.438000 0.062561
0.062561 0.437318 0.062561
0.410601 0.433662 0.062561
0.685485 0.424181 0.062561
0.915558 0.408602 0.062561
0.918866 0.397816 0.062561
0.918866 0.394939 0.062561
0.062561 0.671595 0.062561
0.062561 0.671534 0.062561
0.062561 0.671198 0.062561
0.232530 0.669413 0.062561
0.630060 0.664860 0.062561
0.882768 0.657629 0.062561
0.918866 0.652807 0.062561
0.918866 0.651547 0.062561
0.062561 0.880995 0.062561
0.062561 0.880956 0.062561
0.062561 0.880744 0.062561
0.062561 0.879614 0.062561
0.521948 0.876745 0.062561
0.826894 0.872223 0.062561
0.918866 0.869232 0.062561
0.918866 0.868453 0.062561
0.062561 0.918866 0.062561
0.062561 0.918866 0.062561
0.062561 0.918866 0.062561
0.062561 0.918866 0.062561
0.423417 0.918866 0.062561
0.786435 0.918866 0.062561
0.918866 0.918866 0.062561
0.918866 0.918866 0.062561
0.062561 0.918866 0.062561
0.062561 0.918866 0.062561
0.062561 0.918866 0.062561
0.062561 0.918866 0.062561
0.390667 0.918866 0.062561
0.775352 0.918866 0.062561
0.913794 0.918866 0.062561
0.918866 0.918866 0.062561
0.062561 0.062561 0.097961
0.107199 0.062561 0.098304
0.237587 0.062561 0.100188
0.463140 0.062561 0.110204
0.709631 0.062561 0.132337
0.918866 0.062561 0.158716
0.918866 0.062561 0.172927
0.918866 0.062561 0.176332
0.062561 0.095492 0.094074
0.094418 0.094418 0.094418
0.233554 0.088521 0.096301
0.461790 0.062561 0.106317
0.708969 0.062561 0.129297
0.918866 0.062561 0.156420
0.918866 0.062561 0.170919
0.918866 0.062561 0.174384
0.062561 0.222159 0.072745
0.062561 0.221786 0.073088
0.209142 0.219724 0.074972
0.454264 0.208208 0.084988
0.705316 0.173405 0.110316
0.918866 0.078056 0.142795
0.918866 0.062561 0.159190
0.918866 0.062561 0.163043
0.062561 0.437207 0.062561
0.062561 0.437082 0.062561
0.062561 0.436398 0.062561
0.410258 0.432728 0.062561
0.685338 0.423212 0.062561
0.915468 0.407572 0.062561
0.918866 0.396739 0.062579
0.918866 0.393850 0.069330
0.062561 0.671144 0.062561
0.062561 0.671082 0.062561
0.062561 0.670747 0.062561
0.231668 0.668959 0.062561
0.629891 0.664401 0.062561
0.882672 0.657162 0.062561
0.918866 0.652334 0.062561
0.918866 0.651072 0.062561
0.062561 0.880709 0.062561
0.062561 0.880671 0.062561
0.062561 0.880458 0.062561
0.062561 0.879327 0.062561
0.521716 0.876457 0.062561
0.826787 0.871933 0.062561
0.918866 0.868940 0.062561
0.918866 0.868161 0.062561
0.062561 0.918866 0.062561
0.062561 0.918866 0.062561
0.062561 0.918866 0.062561
0.062561 0.918866 0.062561
0.423091 0.918866 0.062561
0.786319 0.918866 0.062561
0.918866 0.918866 0.062561
0.918866 0.918866 0.062561
0.062561 0.918866 0.062561
0.062561 0.918866 0.062561
0.062561 0.918866 0.062561
0.062561 0.918866 0.062561
0.390294 0.918866 0.062561
0.775233 0.918866 0.062561
0.913704 0.918866 0.062561
0.918866 0.918866 0.062561
0.062561 0.062561 0.212282
0.092552 0.062561 0.212409
0.232955 0.062561 0.213107
0.461593 0.062561 0.216761
0.708872 0.062561 0.225592
0.918866 0.062561 0.238406
0.918866 0.062561 0.246258
0.918866 0.062561 0.248231
0.062561 0.062561 0.210828
0.079771 0.062561 0.210957
0.228791 0.062561 0.211663
0.460235 0.062561 0.215354
0.708208 0.062561 0.224272
0.918866 0.062561 0.237197
0.918866 0.062561 0.245111
0.918866 0.062561 0.247098
0.062561 0.206186 0.202555
0.062561 0.205768 0.202692
0.203443 0.203443 0.203443
0.452666 0.190323 0.207367
0.704549 0.148537 0.216801
0.918866 0.062561 0.230385
0.918866 0.062561 0.238657
0.918866 0.062561 0.240730
0.062561 0.432111 0.145253
0.062561 0.431984 0.145483
0.062561 0.431286 0.146730
0.408367 0.427544 0.153110
0.684534 0.417832 0.167662
0.914974 0.401841 0.187161
0.918866 0.390744 0.198418
0.918866 0.387781 0.201180
0.062561 0.668660 0.062561
0.062561 0.668598 0.062561
0.062561 0.668261 0.062561
0.226843 0.666462 0.062561
0.628964 0.661876 0.062561
0.882146 0.654588 0.062561
0.918866 0.649728 0.062561
0.918866 0.648458 0.062561
0.062561 0.879138 0.062561
0.062561 0.879100 0.062561
0.062561 0.878887 0.062561
0.062561 0.877752 0.062561
0.520447 0.874873 0.062561
0.826200 0.870335 0.062561
0.918866 0.867332 0.062561
0.918866 0.866551 0.062561
0.062561 0.918866 0.062561
0.062561 0.918866 0.062561
0.062561 0.918866 0.062561
0.062561 0.918866 0.062561
0.421293 0.918866 0.062561
0.785680 0.918866 0.062561
0.918866 0.918866 0.062561
0.918866 0.918866 0.062561
0.062561 0.918866 0.062561
0.062561 0.918866 0.062561
0.062561 0.918866 0.062561
0.062561 0.918866 0.062561
0.388240 0.918866 0.062561
0.774579 0.918866 0.062561
0.913208 0.918866 0.062561
0.918866 0.918866 0.062561
0.062561 0.062561 0.414577
0.062561 0.062561 0.414620
0.205432 0.062561 0.414858
0.453216 0.062561 0.416120
0.704813 0.062561 0.419284
0.918866 0.062561 0.424158
0.918866 0.062561 0.427309
0.918866 0.062561 0.428121
0.062561 0.062561 0.414084
0.062561 0.062561 0.414128
0.200327 0.062561 0.414366
0.451817 0.062561 0.415631
0.704143 0.062561 0.418801
0.918866 0.062561 0.423684
0.918866 0.062561 0.426841
0.918866 0.062561 0.427654
0.062561 0.062561 0.411367
0.062561 0.062561 0.411411
0.167762 0.062561 0.411652
0.444008 0.062561 0.412930
0.700448 0.062561 0.416134
0.918866 0.062561 0.421068
0.918866 0.062561 0.424257
0.918866 0.062561 0.425078
0.062561 0.403185 0.396397
0.062561 0.403042 0.396443
0.062561 0.402260 0.396700
0.398057 0.398057 0.398057
0.680228 0.387092 0.401458
0.912337 0.368832 0.406687
0.918866 0.355988 0.410062
0.918866 0.352531 0.410929
0.062561 0.655188 0.353674
0.062561 0.655124 0.353730
0.062561 0.654775 0.354038
0.197918 0.652913 0.355672
0.623997 0.648165 0.359751
0.879343 0.640615 0.365987
0.918866 0.635574 0.369989
0.918866 0.634256 0.371015
0.062561 0.870706 0.261741
0.062561 0.870667 0.261832
0.062561 0.870450 0.262334
0.062561 0.869298 0.264975
0.513609 0.866371 0.271473
0.823067 0.861756 0.281168
0.918866 0.858703 0.287253
0.918866 0.857909 0.288798
0.062561 0.918866 0.146868
0.062561 0.918866 0.147093
0.062561 0.918866 0.148320
0.062561 0.918866 0.154602
0.411515 0.918866 0.168962
0.782269 0.918866 0.188259
0.918866 0.918866 0.199422
0.918866 0.918866 0.202162
0.062561 0.918866 0.079583
0.062561 0.918866 0.079927
0.062561 0.918866 0.081810
0.062561 0.918866 0.091826
0.377007 0.918866 0.116899
0.771085 0.918866 0.147372
0.910563 0.918866 0.163092
0.918866 0.918866 0.166809
0.062561 0.062561 0.636059
0.062561 0.062561 0.636080
0.077315 0.062561 0.636198
0.430806 0.062561 0.636819
0.694369 0.062561 0.638388
0.918866 0.062561 0.640831
0.918866 0.062561 0.642426
0.918866 0.062561 0.642838
0.062561 0.062561 0.635817
0.062561 0.062561 0.635838
0.064533 0.062561 0.635956
0.429283 0.062561 0.636578
0.693682 0.062561 0.638148
0.918866 0.062561 0.640592
0.918866 0.062561 0.642188
0.918866 0.062561 0.642601
0.062561 0.062561 0.634488
0.062561 0.062561 0.634509
0.062561 0.062561 0.634627
0.420770 0.062561 0.635252
0.689892 0.062561 0.636827
0.918275 0.062561 0.639279
0.918866 0.062561 0.640881
0.918866 0.062561 0.641295
0.062561 0.308354 0.627339
0.062561 0.308133 0.627360
0.062561 0.306919 0.627480
0.369814 0.300331 0.628117
0.669130 0.282534 0.629722
0.905614 0.250382 0.632220
0.918866 0.225049 0.633852
0.918866 0.217691 0.634274
0.062561 0.618867 0.608624
0.062561 0.618798 0.608647
0.062561 0.618413 0.608773
0.062561 0.616364 0.609443
0.611131 0.611131 0.611131
0.872183 0.602786 0.613757
0.918866 0.597200 0.615471
0.918866 0.595738 0.615914
0.062561 0.848744 0.577246
0.062561 0.848703 0.577270
0.062561 0.848477 0.577408
0.062561 0.847273 0.578139
0.495603 0.844216 0.579982
0.815053 0.839395 0.582845
0.918866 0.836202 0.584714
0.918866 0.835371 0.585196
0.062561 0.918866 0.554986
0.062561 0.918866 0.555013
0.062561 0.918866 0.555160
0.062561 0.918866 0.555941
0.384911 0.918866 0.557906
0.773529 0.918866 0.560959
0.912412 0.918866 0.562950
0.918866 0.918866 0.563464
0.062561 0.918866 0.548964
0.062561 0.918866 0.548992
0.062561 0.918866 0.549141
0.062561 0.918866 0.549937
0.345832 0.918866 0.551938
0.762127 0.918866 0.555046
0.903816 0.918866 0.557072
0.918866 0.918866 0.557595
0.062561 0.062561 0.834708
0.062561 0.062561 0.834721
0.062561 0.062561 0.834796
0.391291 0.062561 0.835190
0.677475 0.062561 0.836187
0.910661 0.062561 0.837742
0.918866 0.062561 0.838761
0.918866 0.062561 0.839025
0.062561 0.062561 0.834554
0.062561 0.062561 0.834568
0.062561 0.062561 0.834643
0.389507 0.062561 0.835037
0.676760 0.062561 0.836034
0.910225 0.062561 0.837590
0.918866 0.062561 0.838609
0.918866 0.062561 0.838873
0.062561 0.062561 0.833713
0.062561 0.062561 0.833726
0.062561 0.062561 0.833801
0.379471 0.062561 0.834196
0.672809 0.062561 0.835194
0.907831 0.062561 0.836753
0.918866 0.062561 0.837774
0.918866 0.062561 0.838038
0.062561 0.062561 0.829213
0.062561 0.062561 0.829227
0.062561 0.062561 0.829302
0.316800 0.062561 0.829701
0.651117 0.062561 0.830709
0.894918 0.062561 0.832281
0.918866 0.062561 0.833311
0.918866 0.062561 0.833578
0.062561 0.553598 0.817647
0.062561 0.553514 0.817661
0.062561 0.553051 0.817738
0.062561 0.550580 0.818147
0.590037 0.544248 0.819178
0.860774 0.534085 0.820788
0.918866 0.527232 0.821842
0.918866 0.525431 0.822115
0.062561 0.812315 0.798973
0.062561 0.812271 0.798987
0.062561 0.812027 0.799067
0.062561 0.810731 0.799492
0.465030 0.807438 0.800564
0.802237 0.802237 0.802237
0.918866 0.798791 0.803333
0.918866 0.797894 0.803617
0.062561 0.918866 0.786298
0.062561 0.918866 0.786313
0.062561 0.918866 0.786396
0.062561 0.918866 0.786832
0.335926 0.918866 0.787933
0.759507 0.918240 0.789651
0.901852 0.915499 0.790777
0.918866 0.914785 0.791068
0.062561 0.918866 0.782955
0.062561 0.918866 0.782970
0.062561 0.918866 0.783053
0.062561 0.918866 0.783492
0.285042 0.918866 0.784601
0.747743 0.918866 0.786332
0.893085 0.918866 0.787465
0.918866 0.918866 0.787758
0.062561 0.062561 0.918866
0.062561 0.062561 0.918866
0.062561 0.062561 0.918866
0.361294 0.062561 0.918866
0.665986 0.062561 0.918866
0.903727 0.062561 0.918866
0.918866 0.062561 0.918866
0.918866 0.062561 0.918866
0.062561 0.062561 0.918866
0.062561 0.062561 0.918866
0.062561 0.062561 0.918866
0.359260 0.062561 0.918866
0.665250 0.062561 0.918866
0.903286 0.062561 0.918866
0.918866 0.062561 0.918866
0.918866 0.062561 0.918866
0.062561 0.062561 0.918866
0.062561 0.062561 0.918866
0.062561 0.062561 0.918866
0.347747 0.062561 0.918866
0.661183 0.062561 0.918866
0.900860 0.062561 0.918866
0.918866 0.062561 0.918866
0.918866 0.062561 0.918866
0.062561 0.062561 0.918866
0.062561 0.062561 0.918866
0.062561 0.062561 0.918866
0.272159 0.062561 0.918866
0.638819 0.062561 0.918866
0.887775 0.062561 0.918866
0.918866 0.062561 0.918866
0.918866 0.062561 0.918866
0.062561 0.502595 0.916795
0.062561 0.502496 0.916807
0.062561 0.501952 0.916870
0.062561 0.499047 0.917207
0.575470 0.491572 0.918058
0.853142 0.479479 0.918866
0.918866 0.471256 0.918866
0.918866 0.469084 0.918866
0.062561 0.786812 0.901475
0.062561 0.786765 0.901487
0.062561 0.786508 0.901553
0.062561 0.785140 0.901899
0.442993 0.781663 0.902774
0.793631 0.776169 0.904142
0.918866 0.772525 0.905038
0.918866 0.771575 0.905270
0.062561 0.906015 0.891171
0.062561 0.905978 0.891184
0.062561 0.905775 0.891250
0.062561 0.904697 0.891603
0.296083 0.901962 0.892496
0.750058 0.897652 0.893890
0.894803 0.894803 0.894803
0.918866 0.894062 0.895040
0.062561 0.918866 0.888466
0.062561 0.918866 0.888478
0.062561 0.918866 0.888545
0.062561 0.918866 0.888900
0.229677 0.918866 0.889797
0.738038 0.918866 0.891198
0.885917 0.918866 0.892116
0.918093 0.918866 0.892354
0.062561 0.062561 0.918866
0.062561 0.062561 0.918866
0.062561 0.062561 0.918866
0.352816 0.062561 0.918866
0.662952 0.062561 0.918866
0.901914 0.062561 0.918866
0.918866 0.062561 0.918866
0.918866 0.062561 0.918866
0.062561 0.062561 0.918866
0.062561 0.062561 0.918866
0.062561 0.062561 0.918866
0.350701 0.062561 0.918866
0.662210 0.062561 0.918866
0.901471 0.062561 0.918866
0.918866 0.062561 0.918866
0.918866 0.062561 0.918866
0.062561 0.062561 0.918866
0.062561 0.062561 0.918866
0.062561 0.062561 0.918866
0.338705 0.062561 0.918866
0.658111 0.062561 0.918866
0.899038 0.062561 0.918866
0.918866 0.062561 0.918866
0.918866 0.062561 0.918866
0.062561 0.062561 0.918866
0.062561 0.062561 0.918866
0.062561 0.062561 0.918866
0.258456 0.062561 0.918866
0.635565 0.062561 0.918866
0.885907 0.062561 0.918866
0.918866 0.062561 0.918866
0.918866 0.062561 0.918866
0.062561 0.487875 0.918866
0.062561 0.487771 0.918866
0.062561 0.487200 0.918866
0.062561 0.484146 0.918866
0.571591 0.476278 0.918866
0.851143 0.463513 0.918866
0.918866 0.454804 0.918866
0.918866 0.452500 0.918866
0.062561 0.779966 0.918866
0.062561 0.779918 0.918866
0.062561 0.779658 0.918866
0.062561 0.778270 0.918866
0.436974 0.774741 0.918866
0.791373 0.769163 0.918866
0.918866 0.765462 0.918866
0.918866 0.764498 0.918866
0.062561 0.900629 0.915196
0.062561 0.900592 0.915208
0.062561 0.900387 0.915272
0.062561 0.899299 0.915610
0.284214 0.896535 0.916463
0.747574 0.892181 0.917797
0.892959 0.889302 0.918670
0.918866 0.888553 0.918866
0.062561 0.918866 0.912610
0.062561 0.918866 0.912622
0.062561 0.918866 0.912686
0.062561 0.918866 0.913026
0.211289 0.918866 0.913883
0.735486 0.918866 0.915222
0.884042 0.917039 0.916100
0.916327 0.916327 0.916327
