luts/lq_technicolor_v11.cube
TITLE "Generated by Foundry::LUT"
LUT_3D_SIZE 33
0.008163 0.007573 0.007087
0.021839 0.004499 0.004396
0.038097 0.001705 0.001915
0.056138 -0.000526 -0.000211
0.073696 -0.002386 -0.002097
0.091973 -0.003818 -0.003699
0.114528 -0.006192 -0.006786
0.142773 -0.006435 -0.008225
0.175729 -0.005044 -0.008860
0.215131 -0.001648 -0.008368
0.264334 0.002715 -0.006275
0.323158 0.003479 -0.002275
0.389544 0.003068 0.004267
0.461352 0.001870 0.014014
0.528367 0.001999 0.019255
0.594577 0.002271 0.024975
0.660224 0.002544 0.031720
0.725039 0.002819 0.039495
0.788739 0.003101 0.048415
0.851045 0.003393 0.058327
0.911578 0.003681 0.068410
0.962289 0.003923 0.077598
0.985238 0.004046 0.085212
0.985186 0.004072 0.091197
0.985149 0.004090 0.095820
0.985125 0.004102 0.099253
0.985112 0.004108 0.101670
0.985109 0.004110 0.103242
0.985112 0.004108 0.104144
0.985121 0.004104 0.104548
0.985133 0.004098 0.104631
0.985147 0.004091 0.104599
0.985160 0.004085 0.104634
0.003107 0.019038 0.009385
0.014146 0.015117 0.006643
0.030593 0.012250 0.004470
0.048339 0.009381 0.002045
0.066677 0.007018 -0.000140
0.085164 0.005202 -0.002018
0.106328 0.000958 -0.005951
0.133811 -0.000480 -0.008047
0.165870 -0.000558 -0.009370
0.203910 0.001049 -0.009649
0.251966 0.004648 -0.008309
0.310627 0.005583 -0.005012
0.378049 0.003949 0.000782
0.452279 0.002728 0.009783
0.521057 0.002634 0.015937
0.587968 0.002809 0.022041
0.654241 0.002991 0.029097
0.719610 0.003183 0.037121
0.783806 0.003388 0.046106
0.846553 0.003611 0.056046
0.907474 0.003849 0.066464
0.959410 0.004068 0.076018
0.984677 0.004197 0.083969
0.984758 0.004188 0.090164
0.984823 0.004179 0.094941
0.984877 0.004170 0.098498
0.984922 0.004161 0.101016
0.984962 0.004151 0.102669
0.984998 0.004141 0.103635
0.985032 0.004130 0.104088
0.985063 0.004119 0.104206
0.985091 0.004108 0.104192
0.985116 0.004099 0.104226
0.000337 0.032438 0.012035
0.007534 0.028219 0.008771
0.021855 0.024167 0.006198
0.040117 0.020778 0.004268
0.059112 0.018290 0.002144
0.078207 0.015648 -0.000096
0.098895 0.010111 -0.003852
0.125244 0.007504 -0.006645
0.156076 0.006362 -0.008681
0.192701 0.006825 -0.009780
0.238515 0.008984 -0.009387
0.295835 0.010133 -0.006976
0.363506 0.006213 -0.002114
0.439872 0.004079 0.006005
0.511372 0.003264 0.012758
0.579564 0.003310 0.019161
0.646908 0.003409 0.026468
0.713166 0.003525 0.034708
0.778103 0.003658 0.043772
0.841469 0.003818 0.053765
0.902905 0.004005 0.064361
0.955598 0.004188 0.074213
0.982196 0.004301 0.082462
0.984337 0.004301 0.088943
0.984502 0.004265 0.093920
0.984631 0.004237 0.097635
0.984733 0.004213 0.100276
0.984816 0.004192 0.102027
0.984885 0.004174 0.103067
0.984943 0.004156 0.103574
0.984993 0.004140 0.103725
0.985036 0.004126 0.103729
0.985072 0.004113 0.103762
0.000034 0.047576 0.014693
0.003171 0.042888 0.011302
0.012200 0.038173 0.008119
0.030397 0.034012 0.005722
0.050504 0.030618 0.003947
0.070647 0.027805 0.002058
0.091679 0.021986 -0.001123
0.117313 0.017262 -0.004321
0.146458 0.014552 -0.006943
0.180856 0.013286 -0.008927
0.223884 0.014137 -0.009551
0.279445 0.016565 -0.008169
0.346918 0.014526 -0.004280
0.424642 0.008442 0.002766
0.499325 0.004081 0.009770
0.569343 0.003772 0.016381
0.638177 0.003798 0.023882
0.705647 0.003845 0.032286
0.771574 0.003915 0.041522
0.835754 0.004015 0.051509
0.897866 0.004149 0.062073
0.951236 0.004294 0.072232
0.979336 0.004395 0.080825
0.983916 0.004413 0.087631
0.984181 0.004352 0.092812
0.984385 0.004304 0.096688
0.984545 0.004265 0.099453
0.984671 0.004233 0.101290
0.984773 0.004206 0.102397
0.984855 0.004182 0.102955
0.984924 0.004161 0.103143
0.984981 0.004143 0.103171
0.985028 0.004127 0.103218
0.000101 0.064169 0.017325
0.001901 0.058872 0.013854
0.006788 0.053751 0.010527
0.019571 0.049020 0.007390
0.039696 0.044547 0.005194
0.061456 0.041150 0.003547
0.084055 0.035210 0.001401
0.110106 0.030585 -0.001603
0.138684 0.025923 -0.004572
0.171258 0.021740 -0.007076
0.211117 0.020553 -0.008690
0.263484 0.021987 -0.008443
0.329125 0.022514 -0.005708
0.407216 0.018789 0.000168
0.485132 0.011362 0.007035
0.557339 0.005087 0.013660
0.628069 0.004157 0.021253
0.697090 0.004141 0.029761
0.764264 0.004154 0.039125
0.829460 0.004198 0.049072
0.892392 0.004283 0.059611
0.946540 0.004392 0.070068
0.975954 0.004476 0.078972
0.982357 0.004497 0.086069
0.983864 0.004437 0.091486
0.984144 0.004369 0.095523
0.984360 0.004316 0.098418
0.984529 0.004272 0.100370
0.984662 0.004237 0.101567
0.984769 0.004207 0.102193
0.984856 0.004182 0.102430
0.984926 0.004160 0.102489
0.984984 0.004141 0.102552
0.000049 0.082096 0.020008
0.001055 0.076191 0.016342
0.004038 0.070744 0.012914
0.010423 0.065438 0.009617
0.027960 0.060283 0.006585
0.049891 0.056021 0.004565
0.075114 0.049781 0.002905
0.102363 0.044686 0.000925
0.130954 0.039610 -0.002041
0.162905 0.034744 -0.004888
0.199933 0.029623 -0.007048
0.247029 0.028192 -0.007988
0.309893 0.030365 -0.006563
0.387700 0.030210 -0.001974
0.468964 0.024152 0.004470
0.543762 0.014496 0.010974
0.616604 0.006501 0.018504
0.687446 0.004518 0.027044
0.756103 0.004376 0.036492
0.822477 0.004372 0.046557
0.886356 0.004410 0.057119
0.941426 0.004479 0.067528
0.971714 0.004534 0.076714
0.979610 0.004552 0.084141
0.983551 0.004520 0.089872
0.983904 0.004433 0.094105
0.984176 0.004365 0.097152
0.984387 0.004311 0.099221
0.984552 0.004268 0.100508
0.984683 0.004232 0.101202
0.984788 0.004202 0.101484
0.984873 0.004176 0.101570
0.984942 0.004154 0.101651
0.000049 0.105129 0.022444
0.000302 0.098090 0.019130
0.001574 0.092099 0.015458
0.006710 0.086150 0.012115
0.016425 0.080507 0.008926
0.034816 0.075166 0.005685
0.061710 0.069018 0.003775
0.091671 0.062934 0.002231
0.121385 0.056993 0.000714
0.153368 0.051717 -0.001813
0.189928 0.045957 -0.004779
0.231619 0.040475 -0.006557
0.288269 0.038887 -0.006657
0.363601 0.042312 -0.003856
0.447639 0.042230 0.001648
0.525663 0.034641 0.007781
0.601458 0.021373 0.015061
0.674724 0.012514 0.023455
0.745371 0.006502 0.032852
0.813397 0.004582 0.043022
0.878630 0.004567 0.053582
0.934992 0.004586 0.063993
0.966480 0.004608 0.073555
0.976135 0.004620 0.081379
0.982549 0.004608 0.087461
0.983608 0.004511 0.091938
0.983950 0.004426 0.095163
0.984214 0.004358 0.097370
0.984419 0.004304 0.098765
0.984580 0.004261 0.099544
0.984707 0.004225 0.099895
0.984809 0.004195 0.100036
0.984891 0.004170 0.100152
0.000049 0.133624 0.025064
0.000039 0.125486 0.021446
0.000347 0.118315 0.018064
0.002524 0.111223 0.014760
0.008431 0.104829 0.011418
0.020389 0.098804 0.008331
0.045108 0.092098 0.004767
0.076738 0.085369 0.002946
0.109546 0.078631 0.001762
0.142648 0.072496 0.000762
0.179217 0.066173 -0.001261
0.220187 0.060052 -0.003880
0.265537 0.052906 -0.005883
0.332940 0.053633 -0.005245
0.418146 0.058899 -0.001605
0.500722 0.059164 0.003683
0.580988 0.052655 0.010545
0.657741 0.039740 0.018622
0.731174 0.024957 0.027809
0.801463 0.014448 0.037971
0.868527 0.007605 0.048672
0.926702 0.004765 0.059221
0.959899 0.004731 0.068905
0.970778 0.004702 0.077138
0.979086 0.004684 0.083674
0.983195 0.004620 0.088570
0.983636 0.004509 0.092054
0.983975 0.004422 0.094457
0.984236 0.004354 0.095999
0.984439 0.004300 0.096888
0.984598 0.004256 0.097320
0.984724 0.004219 0.097517
0.984825 0.004189 0.097670
0.000045 0.166647 0.026632
0.000038 0.157195 0.023709
0.000030 0.148771 0.020193
0.000023 0.140364 0.017218
0.002935 0.132902 0.014055
0.009727 0.125796 0.010848
0.024245 0.117998 0.007616
0.057897 0.110597 0.003875
0.093466 0.103245 0.002572
0.129563 0.096284 0.001651
0.167618 0.089369 0.001130
0.208823 0.082738 -0.000550
0.253377 0.075481 -0.003420
0.302466 0.067697 -0.005060
0.382250 0.070590 -0.003977
0.468568 0.076791 -0.000453
0.554092 0.080211 0.005164
0.635911 0.077536 0.012612
0.713373 0.067871 0.021416
0.786718 0.050712 0.031322
0.856172 0.032254 0.042042
0.916743 0.020689 0.052663
0.952205 0.014246 0.062506
0.964669 0.008209 0.071264
0.975016 0.004798 0.078312
0.981913 0.004747 0.083662
0.983223 0.004617 0.087456
0.983662 0.004505 0.090076
0.983999 0.004417 0.091781
0.984259 0.004347 0.092790
0.984461 0.004292 0.093314
0.984620 0.004248 0.093585
0.984744 0.004211 0.093802
0.000040 0.205423 0.027714
0.000033 0.194137 0.024068
0.000027 0.184219 0.021401
0.000022 0.174370 0.018735
0.000016 0.165761 0.015693
0.002748 0.157328 0.012964
0.011843 0.148330 0.009639
0.035458 0.139533 0.006451
0.072784 0.131171 0.002950
0.112228 0.123562 0.002115
0.153825 0.115848 0.001759
0.196499 0.108604 0.001800
0.241187 0.101123 0.000502
0.288468 0.093527 -0.002215
0.340534 0.084934 -0.004593
0.428178 0.091568 -0.003248
0.518872 0.098982 -0.000286
0.607011 0.105834 0.005381
0.690037 0.107333 0.013065
0.767964 0.103219 0.022378
0.841006 0.093292 0.032916
0.904816 0.077718 0.043612
0.943183 0.058580 0.053627
0.957650 0.040159 0.062609
0.969433 0.028940 0.070205
0.978408 0.027351 0.076125
0.982905 0.025980 0.080410
0.983458 0.024867 0.083327
0.983882 0.024084 0.085243
0.984209 0.023581 0.086402
0.984462 0.023273 0.087033
0.984659 0.023036 0.087384
0.984813 0.022755 0.087665
0.000028 0.253246 0.025394
0.000025 0.239563 0.023291
0.000020 0.227097 0.020267
0.000018 0.214661 0.018838
0.000014 0.204752 0.016172
0.000011 0.194887 0.013767
0.002507 0.184471 0.011052
0.013924 0.174174 0.007862
0.043994 0.164481 0.005190
0.088072 0.155659 0.001869
0.134598 0.147023 0.001634
0.181206 0.138955 0.001808
0.227910 0.130919 0.002407
0.275223 0.123105 0.001525
0.325622 0.114402 -0.001153
0.382230 0.106092 -0.003189
0.475402 0.116144 -0.003033
0.569296 0.127468 -0.000743
0.659119 0.138092 0.003794
0.743039 0.144282 0.010771
0.821004 0.145376 0.019819
0.889643 0.142649 0.029921
0.932496 0.137636 0.039831
0.950014 0.131600 0.049060
0.963831 0.125438 0.057389
0.975021 0.119762 0.063969
0.982385 0.114957 0.068805
0.983858 0.111186 0.072088
0.984354 0.108567 0.074242
0.984741 0.106954 0.075561
0.985043 0.106036 0.076300
0.985277 0.105333 0.076737
0.985456 0.104394 0.077106
0.000016 0.309812 0.020671
0.000012 0.294146 0.017535
0.000013 0.278876 0.017519
0.000011 0.264136 0.015825
0.000009 0.251600 0.014196
0.000008 0.239072 0.013110
0.000006 0.226785 0.010850
0.002067 0.214703 0.008682
0.015601 0.203604 0.005866
0.055798 0.193250 0.004067
0.107898 0.183472 0.000677
0.160277 0.174293 0.001033
0.211243 0.165162 0.001817
0.260502 0.156772 0.002924
0.310114 0.148163 0.002373
0.363349 0.139075 0.000023
0.424019 0.130532 -0.002289
0.522164 0.145566 -0.001562
0.618723 0.159740 -0.000802
0.710082 0.176277 0.000855
0.794494 0.187417 0.005064
0.869425 0.193754 0.012199
0.918245 0.196816 0.020412
0.939961 0.197895 0.028463
0.956569 0.197938 0.036324
0.969682 0.197548 0.043210
0.979390 0.197085 0.048627
0.984246 0.196717 0.052425
0.984871 0.196525 0.054876
0.985354 0.196570 0.056384
0.985727 0.196750 0.057238
0.986015 0.196882 0.057763
0.986237 0.196791 0.058230
0.000005 0.371905 0.012234
0.000005 0.354873 0.012772
0.000004 0.337998 0.010346
0.000004 0.321573 0.010464
0.000004 0.306314 0.010115
0.000004 0.291071 0.009434
0.000003 0.276104 0.008457
0.000003 0.260840 0.007427
0.001711 0.247695 0.006033
0.016160 0.235667 0.003782
0.070173 0.224493 0.003061
0.131167 0.213975 0.000123
0.188514 0.203827 0.000325
0.242191 0.194150 0.001700
0.293748 0.184661 0.003335
0.346760 0.175539 0.003238
0.403394 0.165246 0.000822
0.467167 0.157149 -0.000577
0.568714 0.177156 0.000092
0.667290 0.197374 0.000857
0.759424 0.217736 0.001618
0.841739 0.233988 0.002355
0.898394 0.245202 0.003143
0.926909 0.252843 0.005209
0.947353 0.258109 0.009696
0.963076 0.261819 0.014979
0.975480 0.264530 0.019996
0.983530 0.266565 0.023588
0.985222 0.268102 0.025870
0.985819 0.269369 0.027242
0.986278 0.270417 0.027998
0.986632 0.271203 0.028451
0.986904 0.271671 0.028868
0.000001 0.436202 0.006519
0.000001 0.418632 0.005682
0.000001 0.401020 0.006227
0.000001 0.383758 0.004205
0.000001 0.366789 0.005563
0.000001 0.349837 0.004098
0.000001 0.332262 0.004470
0.000001 0.313634 0.004249
0.000015 0.297688 0.003305
0.004092 0.282474 0.003596
0.028549 0.269386 0.001551
0.092329 0.257207 0.002000
0.157489 0.245837 0.000090
0.217962 0.234946 0.000040
0.273704 0.224307 0.001550
0.327604 0.214222 0.003771
0.383774 0.203945 0.004031
0.443173 0.193069 0.001725
0.509793 0.184615 0.000425
0.614424 0.210133 0.001605
0.714101 0.233151 0.002463
0.804940 0.260372 0.003172
0.871473 0.281620 0.003789
0.909373 0.297218 0.004327
0.935052 0.308655 0.005204
0.954377 0.317102 0.006751
0.969235 0.323413 0.008444
0.979998 0.328180 0.009660
0.985347 0.331776 0.010353
0.986091 0.334501 0.010641
0.986662 0.336626 0.010728
0.987100 0.338221 0.010669
0.987436 0.339330 0.010502
0.000000 0.500222 0.001203
0.000001 0.482701 0.003781
0.000000 0.465224 0.000000
0.000000 0.447609 0.002249
0.000000 0.430006 0.001745
0.000000 0.412438 0.000342
0.000000 0.393029 0.002174
0.000000 0.372364 0.000000
0.000000 0.353606 0.002029
0.000274 0.335112 0.000000
0.008717 0.319233 0.001613
0.051319 0.303980 0.000000
0.114265 0.290742 0.000827
0.185409 0.278347 0.000058
0.247866 0.266614 0.000039
0.305762 0.255209 0.001449
0.363392 0.244003 0.004305
0.422913 0.232882 0.004969
0.484304 0.220554 0.002572
0.552364 0.212641 0.001909
0.658877 0.242290 0.003251
0.757958 0.271887 0.004094
0.836153 0.302580 0.004670
0.885975 0.328505 0.005116
0.918758 0.348039 0.005638
0.943037 0.362701 0.006594
0.961266 0.373745 0.008408
0.975257 0.382097 0.009869
0.984182 0.388412 0.010759
0.986118 0.393124 0.011096
0.986830 0.396714 0.011168
0.987376 0.399418 0.011091
0.987793 0.401379 0.010905
0.000000 0.563893 0.001146
0.000000 0.546495 0.000000
0.000000 0.529063 0.000000
0.000000 0.511581 0.000212
0.000000 0.494009 0.000000
0.000000 0.476440 0.000372
0.000000 0.456288 0.000000
0.000000 0.434814 0.000087
0.000000 0.414207 0.000000
0.000000 0.393643 0.000000
0.000960 0.375000 0.000000
0.013294 0.356469 0.000000
0.078632 0.340549 0.000000
0.140035 0.325112 0.000000
0.213485 0.311669 0.000024
0.278411 0.298917 0.000000
0.338795 0.286648 0.001395
0.399455 0.274596 0.004677
0.461869 0.262369 0.005957
0.524975 0.249263 0.003264
0.594322 0.241424 0.002972
0.700765 0.275879 0.004666
0.790662 0.307346 0.005626
0.854699 0.344487 0.006064
0.896917 0.374886 0.006487
0.927898 0.398057 0.007087
0.950762 0.415612 0.008417
0.967900 0.428911 0.010005
0.980020 0.438973 0.011144
0.985977 0.446544 0.011699
0.986861 0.452205 0.011830
0.987538 0.456471 0.011754
0.988058 0.459630 0.011547
0.000000 0.626985 0.000000
0.000000 0.609759 0.000000
0.000000 0.592544 0.000000
0.000000 0.575090 0.000000
0.000000 0.557665 0.000000
0.000000 0.540153 0.000000
0.000000 0.520077 0.000000
0.000000 0.498650 0.000000
0.000000 0.477217 0.000000
0.000000 0.455916 0.000000
0.000000 0.435354 0.000000
0.003900 0.414810 0.000000
0.038878 0.396128 0.000000
0.101028 0.377513 0.000000
0.162315 0.361429 0.000000
0.242065 0.345776 0.000000
0.309548 0.331966 0.000000
0.373676 0.318580 0.001401
0.437801 0.305473 0.005203
0.502087 0.292211 0.006927
0.565647 0.277877 0.004468
0.634093 0.270392 0.004161
0.735381 0.309070 0.006036
0.813887 0.346337 0.006963
0.867711 0.385939 0.007445
0.907693 0.420629 0.007831
0.936930 0.447201 0.008504
0.958419 0.467413 0.010168
0.974474 0.482747 0.011607
0.984518 0.494318 0.012352
0.986736 0.502959 0.012522
0.987578 0.509446 0.012434
0.988222 0.514290 0.012214
0.000000 0.689247 0.001188
0.000000 0.672301 0.000000
0.000000 0.655289 0.000000
0.000000 0.638062 0.000000
0.000000 0.620760 0.000000
0.000000 0.603386 0.000000
0.000000 0.583420 0.000000
0.000000 0.562079 0.000000
0.000000 0.540745 0.000000
0.000000 0.519438 0.000000
0.000000 0.498095 0.000000
0.000751 0.476797 0.000000
0.010431 0.456220 0.000000
0.076318 0.435600 0.000000
0.125880 0.416836 0.000000
0.185750 0.398045 0.000000
0.270358 0.381748 0.000000
0.341666 0.365715 0.000000
0.408929 0.351227 0.001419
0.475890 0.337007 0.005647
0.541803 0.322749 0.008294
0.604573 0.307551 0.004983
0.669979 0.300407 0.004780
0.762981 0.343564 0.007011
0.829615 0.383361 0.008251
0.880546 0.427299 0.008790
0.918227 0.465574 0.009286
0.945686 0.495367 0.010353
0.965804 0.518049 0.011874
0.979694 0.535230 0.012913
0.986422 0.548146 0.013295
0.987470 0.557798 0.013202
0.988270 0.565025 0.012946
0.000000 0.750356 0.000000
0.000000 0.733803 0.000000
0.000000 0.717123 0.000000
0.000000 0.700109 0.000000
0.000000 0.683131 0.000000
0.000000 0.665893 0.000000
0.000000 0.646135 0.000000
0.000000 0.624950 0.000000
0.000000 0.603727 0.000000
0.000000 0.582523 0.000000
0.000000 0.561255 0.000000
0.000000 0.539978 0.000000
0.001132 0.518599 0.000000
0.021850 0.497274 0.000000
0.102035 0.476617 0.000000
0.146146 0.455899 0.000000
0.208730 0.436961 0.000000
0.299714 0.417938 0.000000
0.374875 0.401201 0.000000
0.446337 0.384371 0.001503
0.515106 0.368905 0.005788
0.580223 0.353525 0.008853
0.640162 0.337449 0.006541
0.699562 0.330812 0.005510
0.782236 0.378631 0.007744
0.845385 0.422085 0.009331
0.893089 0.466827 0.010133
0.928648 0.509559 0.010636
0.954384 0.542416 0.012117
0.973129 0.567428 0.013553
0.984628 0.586330 0.014172
0.987182 0.600463 0.014093
0.988178 0.611070 0.013773
0.000000 0.810160 0.001371
0.000000 0.794023 0.000000
0.000000 0.777689 0.000000
0.000000 0.761101 0.000000
0.000000 0.744414 0.000000
0.000000 0.727450 0.000000
0.000000 0.707971 0.000000
0.000000 0.687022 0.000000
0.000000 0.666010 0.000000
0.000000 0.644953 0.000000
0.000000 0.623811 0.000000
0.000000 0.602619 0.000000
0.000000 0.581346 0.000000
0.000000 0.560014 0.000000
0.073150 0.538593 0.000000
0.128412 0.517183 0.000000
0.170023 0.496420 0.000000
0.227475 0.475524 0.000000
0.328237 0.456346 0.000000
0.409275 0.436869 0.000000
0.483176 0.419339 0.001488
0.552565 0.401617 0.005920
0.615562 0.385106 0.009462
0.670382 0.368071 0.006731
0.723927 0.361700 0.005209
0.801257 0.413754 0.008211
0.860975 0.460811 0.010400
0.905619 0.507522 0.011397
0.938771 0.552429 0.012393
0.962766 0.588199 0.013847
0.978963 0.615389 0.014939
0.986678 0.635875 0.015101
0.987912 0.651211 0.014755
0.000000 0.868100 0.000000
0.000000 0.852642 0.000000
0.000000 0.836760 0.000000
0.000000 0.820578 0.000000
0.000000 0.804412 0.000000
0.000000 0.787701 0.000000
0.000000 0.768644 0.000000
0.000000 0.747985 0.000000
0.000000 0.727295 0.000000
0.000000 0.706460 0.000000
0.000000 0.685527 0.000000
0.000000 0.664497 0.000000
0.000000 0.643336 0.000000
0.000000 0.622119 0.000000
0.026683 0.600787 0.000000
0.103499 0.579404 0.000000
0.153069 0.557890 0.000000
0.190393 0.536370 0.000000
0.254890 0.515421 0.000000
0.360683 0.494247 0.000000
0.444171 0.474537 0.000000
0.519910 0.454241 0.001475
0.587038 0.435823 0.005728
0.646628 0.417159 0.009969
0.697004 0.399038 0.008765
0.746385 0.392998 0.005465
0.820154 0.449568 0.008439
0.876395 0.498922 0.011200
0.917638 0.543790 0.012647
0.948826 0.593924 0.013813
0.971082 0.632473 0.015623
0.984481 0.661714 0.016184
0.987439 0.683673 0.015898
0.000000 0.921002 0.000846
0.000000 0.907746 0.000000
0.000000 0.892846 0.000000
0.000000 0.877309 0.000000
0.000000 0.861564 0.000000
0.000000 0.845389 0.000000
0.000000 0.826792 0.000000
0.000000 0.806543 0.000000
0.000000 0.786252 0.000000
0.000000 0.765725 0.000000
0.000000 0.745101 0.000000
0.000000 0.724293 0.000000
0.000000 0.703353 0.000000
0.000000 0.682283 0.000000
0.000000 0.661087 0.000000
0.074659 0.639803 0.000000
0.134851 0.618410 0.000000
0.177603 0.596928 0.000000
0.213394 0.575297 0.000000
0.269967 0.553589 0.000000
0.391972 0.532342 0.000000
0.479693 0.510697 0.000000
0.553236 0.490261 0.001296
0.618629 0.469198 0.005436
0.674022 0.449842 0.009443
0.719860 0.429647 0.008463
0.768509 0.423426 0.004784
0.838697 0.483895 0.008431
0.891696 0.536935 0.011878
0.930043 0.583418 0.013813
0.958445 0.631692 0.015538
0.977673 0.672692 0.016896
0.986672 0.703732 0.017094
0.000000 0.965280 0.001942
0.000000 0.954956 0.000650
0.000000 0.941999 0.000000
0.000000 0.928739 0.000000
0.000000 0.914679 0.000000
0.000000 0.899019 0.000000
0.000000 0.881168 0.000000
0.000000 0.861355 0.000000
0.000000 0.841612 0.000000
0.000000 0.821443 0.000000
0.000000 0.801240 0.000000
0.000000 0.780725 0.000000
0.000000 0.760098 0.000000
0.000000 0.739258 0.000000
0.000000 0.718270 0.000000
0.033481 0.697155 0.000000
0.112270 0.675886 0.000000
0.165002 0.654532 0.000000
0.202585 0.633033 0.000000
0.235432 0.611423 0.000000
0.310767 0.589571 0.000000
0.426817 0.567548 0.000000
0.511876 0.545829 0.000000
0.584592 0.523534 0.001170
0.646105 0.502328 0.004958
0.698120 0.480442 0.009174
0.742000 0.459618 0.009848
0.790264 0.452347 0.004528
0.856900 0.515037 0.008042
0.906747 0.570911 0.012253
0.942148 0.616969 0.014676
0.967899 0.663690 0.017031
0.983825 0.706470 0.018112
0.000000 0.992788 0.000000
0.000000 0.989407 0.000091
0.000000 0.979054 0.000506
0.000000 0.968609 0.000000
0.000000 0.956677 0.000000
0.000000 0.943422 0.000000
0.000000 0.927855 0.000000
0.000000 0.908803 0.000000
0.000000 0.889732 0.000000
0.000000 0.870055 0.000000
0.000000 0.850370 0.000000
0.000000 0.830264 0.000000
0.000000 0.810084 0.000000
0.000000 0.789593 0.000000
0.000000 0.768988 0.000000
0.000000 0.748170 0.000000
0.091036 0.727220 0.000000
0.152808 0.706128 0.000000
0.193929 0.684899 0.000000
0.227749 0.663565 0.000000
0.260582 0.642074 0.000000
0.332469 0.620406 0.000000
0.459253 0.598426 0.000000
0.543686 0.576133 0.000000
0.612808 0.553892 0.001052
0.671724 0.530997 0.004657
0.719450 0.508976 0.008580
0.763743 0.485869 0.012549
0.811329 0.478303 0.007655
0.874515 0.541052 0.007963
0.921135 0.597535 0.012502
0.953487 0.641170 0.015795
0.975224 0.685530 0.018080
0.000024 0.999991 0.045512
0.000001 0.999194 0.003750
0.000000 0.995842 0.000000
0.000000 0.993020 0.000000
0.000000 0.985184 0.000000
0.000000 0.974650 0.000000
0.000000 0.961913 0.000000
0.000000 0.945571 0.000000
0.000000 0.929001 0.000000
0.000000 0.910000 0.000000
0.000000 0.891053 0.000000
0.000000 0.871432 0.000000
0.000000 0.851842 0.000000
0.000000 0.831805 0.000000
0.000000 0.811721 0.000000
0.000000 0.791334 0.000000
0.077046 0.770846 0.000000
0.141365 0.750168 0.000000
0.186304 0.729356 0.000000
0.221853 0.708425 0.000000
0.252590 0.687342 0.000000
0.282201 0.666129 0.000000
0.374865 0.644660 0.000000
0.490310 0.622901 0.000000
0.571486 0.600648 0.000000
0.638526 0.577899 0.001071
0.692889 0.555047 0.004399
0.740602 0.531489 0.008359
0.784830 0.508303 0.011718
0.832018 0.498723 0.006036
0.891703 0.559986 0.005935
0.935306 0.616103 0.012387
0.965090 0.659497 0.016223
0.000070 0.999973 0.078648
0.000026 0.999990 0.047990
0.000002 1.000000 0.011261
0.000000 1.000000 0.000000
0.000000 0.997337 0.000000
0.000000 0.994598 0.000000
0.000000 0.988313 0.000000
0.000000 0.975501 0.000000
0.000000 0.961710 0.000000
0.000000 0.945522 0.000000
0.000000 0.928881 0.000000
0.000000 0.909968 0.000000
0.000000 0.891029 0.000000
0.000000 0.871451 0.000000
0.000000 0.851868 0.000000
0.000000 0.831841 0.000000
0.063141 0.811758 0.000000
0.130968 0.791362 0.000000
0.179912 0.770865 0.000000
0.217013 0.750152 0.000000
0.248647 0.729305 0.000000
0.275311 0.708298 0.000000
0.301567 0.687085 0.000000
0.409264 0.665636 0.000000
0.520173 0.643825 0.000000
0.598676 0.621604 0.000000
0.661257 0.598714 0.001101
0.713488 0.575275 0.004325
0.760961 0.551614 0.008243
0.805606 0.527048 0.012321
0.851842 0.516858 0.010558
0.908235 0.574091 0.006141
0.948684 0.627600 0.011659
0.000142 0.999945 0.113810
0.000064 0.999975 0.075186
0.000028 0.999990 0.049099
0.000004 0.999999 0.017069
0.000000 1.000000 0.000000
0.000000 1.000000 0.000000
0.000000 0.998259 0.000000
0.000000 0.995055 0.000000
0.000000 0.988415 0.000000
0.000000 0.975513 0.000000
0.000000 0.961753 0.000000
0.000000 0.945524 0.000000
0.000000 0.928906 0.000000
0.000000 0.909993 0.000000
0.000000 0.891077 0.000000
0.000000 0.871498 0.000000
0.049558 0.851919 0.000000
0.121838 0.831887 0.000000
0.174851 0.811790 0.000000
0.213256 0.791378 0.000000
0.245614 0.770841 0.000000
0.272730 0.750083 0.000000
0.294328 0.729138 0.000000
0.321999 0.707965 0.000000
0.436558 0.686483 0.000000
0.547616 0.664689 0.000000
