luts/lq_technicolor_v11.cube
TITLE "Generated by Foundry::LUT"
LUT_3D_SIZE 5
0.008163 0.007573 0.007087
0.175729 -0.005044 -0.008860
0.660224 0.002544 0.031720
0.985149 0.004090 0.095820
0.985160 0.004085 0.104634
0.000045 0.166647 0.026632
0.093466 0.103245 0.002572
0.554092 0.080211 0.005164
0.975016 0.004798 0.078312
0.984744 0.004211 0.093802
0.000000 0.626985 0.000000
0.000000 0.477217 0.000000
0.309548 0.331966 0.000000
0.867711 0.385939 0.007445
0.988222 0.514290 0.012214
0.000024 0.999991 0.045512
0.000000 0.929001 0.000000
0.077046 0.770846 0.000000
0.571486 0.600648 0.000000
0.965090 0.659497 0.016223
0.001016 0.999641 0.327860
0.000012 0.999995 0.031528
0.000000 1.000000 0.000000
0.320037 0.929209 0.000000
0.741356 0.766652 0.000000
0.031049 0.015612 0.153460
0.244486 0.005590 0.117514
0.668413 0.000000 0.169652
0.988104 0.003382 0.187758
0.985036 0.004233 0.188239
0.001104 0.256700 0.251625
0.145867 0.146440 0.146829
0.654592 0.083560 0.151838
0.984548 0.004403 0.179438
0.984601 0.004374 0.183192
0.001255 0.751829 0.330331
0.000543 0.617202 0.186595
0.424603 0.449219 0.068278
0.947768 0.410763 0.051063
0.987850 0.513172 0.033835
0.001926 0.999358 0.480200
0.000972 0.999656 0.319700
0.076087 0.907841 0.100191
0.712795 0.747703 0.000868
0.992089 0.751627 0.030756
0.002695 0.999143 0.601317
0.002023 0.999330 0.495447
0.000903 0.999678 0.306678
0.319832 1.000000 0.002387
0.875029 0.906739 0.000000
0.016862 0.000267 0.587790
0.389115 0.016880 0.406890
0.653185 0.000000 0.594657
1.000000 0.000000 0.600335
0.987079 0.003927 0.554383
0.001487 0.307381 0.715195
0.202555 0.144081 0.581744
0.648079 0.000000 0.592879
1.000000 0.000000 0.598581
0.986638 0.004082 0.553166
0.003502 0.813840 0.799422
0.003102 0.720680 0.708400
0.564986 0.565524 0.565889
0.991527 0.518667 0.549353
0.987151 0.477985 0.527916
0.003834 0.998879 0.809908
0.003678 0.998908 0.775523
0.062239 0.983590 0.669562
0.853689 0.884592 0.519746
0.995768 0.851719 0.439131
0.003830 0.998880 0.808867
0.003806 0.998885 0.803266
0.003643 0.998917 0.768116
0.318220 0.999533 0.659919
0.971524 0.995344 0.489537
0.105936 0.000910 0.964469
0.535946 0.018432 0.820276
0.784206 0.031776 0.676286
1.000000 0.000000 0.979709
1.000000 0.000000 0.980345
0.002209 0.463988 0.987353
0.337539 0.248876 0.960611
0.781670 0.033796 0.787812
1.000000 0.000000 0.978884
1.000000 0.000000 0.979521
0.003479 0.788698 0.980187
0.003323 0.749258 0.977219
0.683037 0.619084 0.948925
1.000000 0.338780 0.966691
1.000000 0.327559 0.967341
0.004232 0.981099 0.978083
0.004226 0.981015 0.969901
0.004207 0.976819 0.964380
0.935068 0.935128 0.935169
0.997804 0.916967 0.920645
0.004301 0.998832 0.983726
0.004293 0.998830 0.975336
0.004283 0.998828 0.966722
0.735549 0.999693 0.963720
0.993062 0.998327 0.928873
0.348569 0.245817 0.991671
0.614523 0.021573 0.919982
0.784994 0.033415 0.895465
0.902827 0.037302 0.816260
1.000000 0.000000 1.000000
0.002757 0.602809 0.997284
0.503511 0.473513 0.996753
0.799917 0.186070 0.919623
0.902229 0.038678 0.888606
1.000000 0.000000 1.000000
0.003415 0.769163 1.012255
0.003383 0.761820 1.004108
0.782407 0.709480 0.993045
0.956448 0.572365 0.956448
1.000000 0.240186 1.000000
0.004228 0.975783 1.020810
0.004224 0.975697 1.012592
0.424881 0.974416 1.005152
0.966081 0.961412 0.997494
1.000000 0.916871 0.999939
0.004321 0.998848 1.026747
0.004317 0.998845 1.018376
0.004314 0.998841 1.009938
0.898588 1.002753 1.004156
0.995720 0.995720 0.995720
