luts/lq_technicolor_v11.cube
TITLE "Generated by Foundry::LUT"
LUT_3D_SIZE 9
0.008163 0.007573 0.007087
0.073696 -0.002386 -0.002097
0.175729 -0.005044 -0.008860
0.389544 0.003068 0.004267
0.660224 0.002544 0.031720
0.911578 0.003681 0.068410
0.985149 0.004090 0.095820
0.985112 0.004108 0.104144
0.985160 0.004085 0.104634
0.000101 0.064169 0.017325
0.039696 0.044547 0.005194
0.138684 0.025923 -0.004572
0.329125 0.022514 -0.005708
0.628069 0.004157 0.021253
0.892392 0.004283 0.059611
0.983864 0.004437 0.091486
0.984662 0.004237 0.101567
0.984984 0.004141 0.102552
0.000045 0.166647 0.026632
0.002935 0.132902 0.014055
0.093466 0.103245 0.002572
0.253377 0.075481 -0.003420
0.554092 0.080211 0.005164
0.856172 0.032254 0.042042
0.975016 0.004798 0.078312
0.983999 0.004417 0.091781
0.984744 0.004211 0.093802
0.000005 0.371905 0.012234
0.000004 0.306314 0.010115
0.001711 0.247695 0.006033
0.188514 0.203827 0.000325
0.403394 0.165246 0.000822
0.759424 0.217736 0.001618
0.947353 0.258109 0.009696
0.985222 0.268102 0.025870
0.986904 0.271671 0.028868
0.000000 0.626985 0.000000
0.000000 0.557665 0.000000
0.000000 0.477217 0.000000
0.038878 0.396128 0.000000
0.309548 0.331966 0.000000
0.565647 0.277877 0.004468
0.867711 0.385939 0.007445
0.974474 0.482747 0.011607
0.988222 0.514290 0.012214
0.000000 0.868100 0.000000
0.000000 0.804412 0.000000
0.000000 0.727295 0.000000
0.000000 0.643336 0.000000
0.153069 0.557890 0.000000
0.444171 0.474537 0.000000
0.697004 0.399038 0.008765
0.917638 0.543790 0.012647
0.987439 0.683673 0.015898
0.000024 0.999991 0.045512
0.000000 0.985184 0.000000
0.000000 0.929001 0.000000
0.000000 0.851842 0.000000
0.077046 0.770846 0.000000
0.252590 0.687342 0.000000
0.571486 0.600648 0.000000
0.784830 0.508303 0.011718
0.965090 0.659497 0.016223
0.000435 0.999839 0.205151
0.000026 0.999990 0.047627
0.000000 1.000000 0.000000
0.000000 0.988695 0.000000
0.024473 0.929046 0.000000
0.241954 0.851994 0.000000
0.321516 0.770488 0.000000
0.662656 0.684114 0.000000
0.865970 0.589262 0.011803
0.001016 0.999641 0.327860
0.000518 0.999810 0.225582
0.000012 0.999995 0.031528
0.000000 1.000000 0.000000
0.000000 1.000000 0.000000
0.239634 0.989223 0.000000
0.320037 0.929209 0.000000
0.340000 0.851174 0.000000
0.741356 0.766652 0.000000
0.018981 0.014437 0.057725
0.088610 0.004468 0.041928
0.202264 0.002287 0.041540
0.402605 0.000813 0.065815
0.669656 0.000535 0.085593
0.920804 0.002956 0.107982
0.986235 0.003843 0.126128
0.985343 0.004090 0.131473
0.985097 0.004147 0.131456
0.000337 0.078549 0.076166
0.054384 0.054461 0.054511
0.168275 0.034808 0.041415
0.383439 0.021139 0.049936
0.658307 0.002749 0.075678
0.910347 0.003843 0.102285
0.984892 0.004220 0.123202
0.984875 0.004228 0.129715
0.984923 0.004203 0.129870
0.000378 0.205748 0.095850
0.002489 0.161184 0.068512
0.114919 0.122513 0.045407
0.301080 0.087374 0.039746
0.609439 0.086854 0.057802
0.883325 0.028313 0.088557
0.982795 0.004797 0.113986
0.984171 0.004428 0.122462
0.984672 0.004280 0.123182
0.000250 0.437986 0.104274
0.000126 0.368734 0.066652
0.001415 0.294584 0.041596
0.219460 0.234651 0.024660
0.468186 0.182390 0.028822
0.805250 0.227279 0.031855
0.967690 0.260357 0.060225
0.985042 0.267426 0.073445
0.986629 0.270207 0.075115
0.000306 0.689925 0.143188
0.000067 0.624115 0.061572
0.000008 0.545665 0.019271
0.037954 0.460674 0.008535
0.355185 0.379131 0.008564
0.636203 0.307074 0.029332
0.906160 0.393094 0.026643
0.983916 0.484473 0.020882
0.988048 0.514306 0.016533
0.000473 0.917439 0.206336
0.000146 0.864629 0.107514
0.000005 0.792638 0.018246
0.000000 0.711680 0.000000
0.152911 0.627320 0.000000
0.506704 0.538908 0.000000
0.767730 0.446541 0.020889
0.954031 0.562058 0.031452
0.987130 0.684335 0.023015
0.000865 0.999691 0.299242
0.000433 0.999840 0.204664
0.000012 0.976366 0.032217
0.000000 0.914675 0.000000
0.076810 0.837810 0.000000
0.252517 0.756368 0.000000
0.638831 0.669960 0.000000
0.853013 0.574508 0.012005
0.987606 0.699547 0.027994
0.001411 0.999514 0.396834
0.000935 0.999668 0.312650
0.000397 0.999853 0.195557
0.000005 0.999998 0.019733
0.023673 0.978910 0.000000
0.241876 0.915949 0.000000
0.325647 0.837657 0.000000
0.728656 0.752892 0.000000
0.929761 0.659937 0.010951
0.001955 0.999349 0.484754
0.001499 0.999487 0.411412
0.000952 0.999662 0.315993
0.000365 0.999864 0.186926
0.000002 0.999999 0.012701
0.239555 1.000000 0.000000
0.319987 0.979975 0.000000
0.387373 0.915153 0.000000
0.805153 0.833698 0.000000
0.031049 0.015612 0.153460
0.113087 0.008907 0.116876
0.244486 0.005590 0.117514
0.398006 0.000000 0.160561
0.668413 0.000000 0.169652
0.922510 0.001295 0.181029
0.988104 0.003382 0.187758
0.985765 0.004038 0.189166
0.985036 0.004233 0.188239
0.000406 0.084066 0.193840
0.071855 0.056140 0.151210
0.204049 0.027707 0.122039
0.398904 0.001762 0.154008
0.667209 0.000000 0.167371
0.920341 0.002410 0.176524
0.986731 0.003779 0.185660
0.985288 0.004183 0.188091
0.984859 0.004293 0.187412
0.001104 0.256700 0.251625
0.001199 0.197737 0.194045
0.145867 0.146440 0.146829
0.376964 0.115411 0.134484
0.654592 0.083560 0.151838
0.907523 0.018117 0.166364
0.984548 0.004403 0.179438
0.984553 0.004400 0.183504
0.984601 0.004374 0.183192
0.001340 0.502552 0.299904
0.001004 0.437411 0.235491
0.000980 0.360654 0.168976
0.268749 0.282491 0.123521
0.548935 0.218552 0.116233
0.851633 0.240635 0.129879
0.981171 0.260510 0.149397
0.984989 0.263274 0.156179
0.986288 0.264812 0.156672
0.001255 0.751829 0.330331
0.000913 0.690529 0.263780
0.000543 0.617202 0.186595
0.035039 0.536091 0.111178
0.424603 0.449219 0.068278
0.715917 0.357622 0.074778
0.947768 0.410763 0.051063
0.983785 0.485691 0.039500
0.987850 0.513172 0.033835
0.001480 0.947413 0.399748
0.001084 0.915214 0.327814
0.000683 0.857929 0.245112
0.000318 0.783370 0.154921
0.152425 0.703372 0.056859
0.581907 0.616406 0.017590
0.845873 0.520193 0.046861
0.983838 0.607746 0.046887
0.986892 0.684682 0.029020
0.001926 0.999358 0.480200
0.001478 0.999493 0.408019
0.000972 0.999656 0.319700
0.000502 0.968790 0.218585
0.076087 0.907841 0.100191
0.254104 0.831510 0.009693
0.712795 0.747703 0.000868
0.926381 0.655009 0.012287
0.992089 0.751627 0.030756
0.002396 0.999224 0.553881
0.002004 0.999335 0.492456
0.001485 0.999491 0.409142
0.000926 0.999671 0.311059
0.021400 0.999878 0.195444
0.241636 0.973623 0.009548
0.371232 0.909760 0.000000
0.801402 0.829041 0.000000
0.984234 0.739943 0.009043
0.002695 0.999143 0.601317
0.002447 0.999210 0.561982
0.002023 0.999330 0.495447
0.001474 0.999495 0.407360
0.000903 0.999678 0.306678
0.239311 1.000000 0.178323
0.319832 1.000000 0.002387
0.552428 0.974473 0.000000
0.875029 0.906739 0.000000
0.031003 0.000267 0.346313
0.153147 0.004699 0.268747
0.299959 0.009425 0.251159
0.395912 0.000561 0.347075
0.664524 0.000000 0.355386
0.921882 0.000000 0.361367
0.994581 0.001591 0.356650
0.987545 0.003647 0.344193
0.985273 0.004301 0.338885
0.000356 0.049365 0.411696
0.077172 0.021771 0.342983
0.258249 0.017039 0.264678
0.408149 0.002682 0.329692
0.663308 0.000000 0.354480
0.921148 0.000000 0.360482
0.993229 0.001993 0.353687
0.987069 0.003795 0.343284
0.985095 0.004362 0.338700
0.001240 0.267992 0.480271
0.000953 0.201250 0.416529
0.177496 0.130392 0.339860
0.400424 0.038701 0.315790
0.659551 0.001179 0.351673
0.918886 0.000000 0.357739
0.991048 0.002642 0.347916
0.986320 0.004025 0.340525
0.984829 0.004450 0.336915
0.002381 0.553432 0.543305
0.002108 0.489863 0.481014
0.001789 0.415569 0.408653
0.332886 0.333126 0.333291
0.640192 0.320747 0.337111
0.897647 0.270063 0.326063
0.985920 0.243877 0.326708
0.985905 0.234478 0.327034
0.985950 0.232421 0.325927
0.002795 0.798293 0.590823
0.002490 0.746771 0.529472
0.002131 0.677838 0.457927
0.019483 0.600820 0.381614
0.500680 0.520204 0.306962
0.796150 0.438905 0.265587
0.977456 0.463682 0.275089
0.983203 0.485081 0.284174
0.986813 0.505121 0.287475
0.002797 0.949933 0.609879
0.002457 0.937202 0.552752
0.002025 0.904387 0.478930
0.001597 0.845478 0.401125
0.152151 0.771242 0.325659
0.657068 0.689375 0.253352
0.919990 0.599191 0.210724
0.987713 0.663161 0.196953
0.988460 0.703721 0.196900
0.002727 0.999135 0.606432
0.002482 0.999200 0.567436
0.002070 0.999316 0.502851
0.001561 0.993791 0.420732
0.073010 0.961142 0.335426
0.286648 0.900674 0.250513
0.787115 0.823120 0.167880
0.983476 0.736742 0.107845
0.995370 0.805734 0.053789
0.002884 0.999094 0.631958
0.002748 0.999129 0.609827
0.002482 0.999200 0.567416
0.002043 0.999324 0.498685
0.006969 0.999491 0.414047
0.240523 0.999669 0.322477
0.522278 0.966719 0.225940
0.873692 0.902134 0.123185
0.998628 0.820867 0.035563
0.002960 0.999075 0.644348
0.002896 0.999091 0.633894
0.002749 0.999129 0.609931
0.002473 0.999202 0.566134
0.002036 0.999326 0.497518
0.238481 0.999854 0.411053
0.319054 1.000000 0.315274
0.692655 1.000000 0.206354
0.935279 0.967344 0.045047
0.016862 0.000267 0.587790
0.223425 0.005206 0.499277
0.389115 0.016880 0.406890
0.451039 0.006795 0.521490
0.653185 0.000000 0.594657
0.915078 0.000000 0.597560
1.000000 0.000000 0.600335
0.994212 0.001764 0.580704
0.987079 0.003927 0.554383
0.000431 0.044503 0.649849
0.098176 0.004781 0.581935
0.321207 0.011427 0.473871
0.457467 0.009438 0.510900
0.651937 0.000000 0.594221
0.914335 0.000000 0.597127
1.000000 0.000000 0.599905
0.993752 0.001909 0.579140
0.986907 0.003988 0.554151
0.001487 0.307381 0.715195
0.001178 0.234495 0.655154
0.202555 0.144081 0.581744
0.445187 0.025142 0.509729
0.648079 0.000000 0.592879
0.912046 0.000000 0.595794
1.000000 0.000000 0.598581
0.993015 0.002145 0.576302
0.986638 0.004082 0.553166
0.002545 0.571645 0.770307
0.002272 0.507275 0.719079
0.001952 0.432438 0.651472
0.390805 0.347353 0.575709
0.628175 0.196308 0.586074
0.900427 0.148124 0.589040
1.000000 0.072710 0.591875
0.990837 0.038030 0.564869
0.986056 0.037165 0.546644
0.003502 0.813840 0.799422
0.003351 0.778651 0.764964
0.003102 0.720680 0.708400
0.013491 0.646372 0.637535
0.564986 0.565524 0.565889
0.865758 0.555541 0.569016
0.991527 0.518667 0.549353
0.987533 0.484241 0.534891
0.987151 0.477985 0.527916
0.003798 0.943093 0.810274
0.003716 0.937126 0.789097
0.003548 0.918656 0.749883
0.003264 0.882743 0.688179
0.144643 0.822722 0.616547
0.725013 0.745538 0.544529
0.970561 0.674931 0.491200
0.989000 0.710968 0.484575
0.990801 0.728738 0.489528
0.003834 0.998879 0.809908
0.003788 0.998888 0.799313
0.003678 0.998908 0.775523
0.003466 0.997782 0.733219
0.062239 0.983590 0.669562
0.419043 0.947586 0.594472
0.853689 0.884592 0.519746
0.995993 0.806084 0.454615
0.995768 0.851719 0.439131
0.003829 0.998880 0.808518
0.003813 0.998883 0.804869
0.003763 0.998893 0.793651
0.003647 0.998916 0.768983
0.003429 0.998963 0.726332
0.238742 0.999404 0.661424
0.656611 0.991861 0.582286
0.930760 0.954636 0.501149
0.999154 0.891660 0.423728
0.003830 0.998880 0.808867
0.003822 0.998881 0.807099
0.003806 0.998885 0.803266
0.003755 0.998894 0.791937
0.003643 0.998917 0.768116
0.236759 0.999294 0.726092
0.318220 0.999533 0.659919
0.801900 1.000000 0.577377
0.971524 0.995344 0.489537
0.040382 0.000433 0.815282
0.298417 0.006355 0.725871
0.460004 0.017491 0.627966
0.692899 0.027334 0.558627
0.771728 0.024806 0.540628
0.903217 0.000000 0.825067
1.000000 0.000000 0.826771
1.000000 0.000000 0.827458
0.994002 0.001895 0.796911
0.000646 0.077470 0.865688
0.155048 0.006292 0.805875
0.389910 0.011433 0.700879
0.635482 0.026947 0.610558
0.776595 0.026828 0.577758
0.902459 0.000000 0.824802
1.000000 0.000000 0.826507
1.000000 0.000000 0.827194
0.993836 0.001956 0.796593
0.001814 0.371844 0.901274
0.001454 0.283449 0.868146
0.262696 0.170105 0.807872
0.553304 0.029409 0.675167
0.782511 0.029664 0.621137
0.900123 0.000000 0.823986
1.000000 0.000000 0.825694
1.000000 0.000000 0.826382
0.993566 0.002060 0.796071
0.002552 0.558819 0.916228
0.002295 0.494809 0.899156
0.001954 0.411446 0.864470
0.433253 0.321633 0.799663
0.732280 0.238354 0.691480
0.888257 0.000000 0.819877
1.000000 0.000000 0.821597
1.000000 0.000000 0.822291
0.992761 0.002354 0.791590
0.003534 0.808905 0.919678
0.003440 0.785874 0.911164
0.003265 0.743263 0.891327
0.005304 0.674520 0.855098
0.623728 0.591665 0.797781
0.852799 0.471237 0.807923
1.000000 0.458479 0.809683
1.000000 0.453165 0.810393
0.992093 0.424936 0.777905
0.004005 0.929994 0.916542
0.003998 0.929055 0.912866
0.003952 0.918162 0.902403
0.003851 0.894374 0.880334
0.261943 0.852171 0.842979
0.785896 0.786403 0.786751
0.990137 0.780610 0.788587
0.995056 0.754236 0.767101
0.992966 0.734490 0.750487
0.004167 0.991469 0.911555
0.004163 0.991453 0.909754
0.004153 0.991402 0.905651
0.004123 0.991143 0.894216
0.029648 0.982516 0.871243
0.559472 0.960352 0.832629
0.904293 0.920284 0.772953
0.995736 0.867111 0.713274
0.995741 0.883951 0.710490
0.004183 0.998828 0.912039
0.004174 0.998829 0.908409
0.004169 0.998830 0.906371
0.004159 0.998830 0.902482
0.004128 0.998834 0.891207
0.233670 0.999127 0.868099
0.763323 0.996002 0.827667
0.963883 0.978009 0.764704
0.999547 0.941915 0.690866
0.004191 0.998828 0.915517
0.004182 0.998829 0.911598
0.004171 0.998829 0.907332
0.004166 0.998830 0.905279
0.004157 0.998831 0.901725
0.231266 0.999110 0.891414
0.565887 0.999564 0.868335
0.883413 1.000000 0.826172
0.988172 0.999996 0.760621
0.105936 0.000910 0.964469
0.372264 0.007975 0.900422
0.535946 0.018432 0.820276
0.675229 0.029127 0.738012
0.784206 0.031776 0.676286
0.871327 0.032673 0.613993
1.000000 0.000000 0.979709
1.000000 0.000000 0.980235
1.000000 0.000000 0.980345
0.001210 0.209537 0.984588
0.238285 0.003128 0.949204
0.461796 0.012764 0.878574
0.671437 0.028125 0.793758
0.783309 0.032785 0.730201
0.870434 0.033719 0.669447
1.000000 0.000000 0.979506
1.000000 0.000000 0.980033
1.000000 0.000000 0.980143
0.002209 0.463988 0.987353
0.001855 0.374148 0.982486
0.337539 0.248876 0.960611
0.606248 0.047417 0.855674
0.781670 0.033796 0.787812
0.869067 0.034859 0.730851
1.000000 0.000000 0.978884
1.000000 0.000000 0.979410
1.000000 0.000000 0.979521
0.002771 0.607746 0.984058
0.002596 0.563140 0.983451
0.002296 0.487336 0.977249
0.468912 0.386520 0.955833
0.782402 0.288045 0.863449
0.876108 0.146938 0.800388
1.000000 0.000000 0.975751
1.000000 0.000000 0.976281
1.000000 0.000000 0.976392
0.003479 0.788698 0.980187
0.003431 0.776724 0.979067
0.003323 0.749258 0.977219
0.099575 0.698611 0.969918
0.683037 0.619084 0.948925
0.903883 0.533737 0.881785
1.000000 0.338780 0.966691
1.000000 0.329575 0.967229
1.000000 0.327559 0.967341
0.003974 0.915274 0.978970
0.003973 0.915244 0.975120
0.003963 0.913093 0.973061
0.003907 0.898953 0.970131
0.411819 0.869995 0.962035
0.836935 0.820434 0.942761
0.979648 0.741235 0.935688
1.000000 0.733025 0.951383
1.000000 0.732482 0.951499
0.004232 0.981099 0.978083
0.004229 0.981078 0.974163
0.004226 0.981015 0.969901
0.004224 0.980705 0.967695
0.004207 0.976819 0.964380
0.677806 0.962202 0.955725
0.935068 0.935128 0.935169
1.000000 0.933351 0.935736
0.997804 0.916967 0.920645
0.004297 0.998831 0.980072
0.004294 0.998830 0.976149
0.004289 0.998829 0.971689
0.004284 0.998828 0.967356
0.004282 0.998828 0.965764
0.464570 0.999239 0.963204
0.849900 0.994814 0.953490
0.977967 0.984171 0.930602
0.999379 0.966611 0.894791
0.004301 0.998832 0.983726
0.004297 0.998831 0.979803
0.004293 0.998830 0.975336
0.004288 0.998829 0.970737
0.004283 0.998828 0.966722
0.225105 0.999087 0.965802
0.735549 0.999693 0.963720
0.934258 0.999446 0.953074
0.993062 0.998327 0.928873
0.243218 0.032120 0.981126
0.447882 0.011077 0.946425
0.598535 0.020658 0.912597
0.674671 0.026820 0.868640
0.781370 0.033893 0.810870
0.868366 0.035249 0.752165
0.904072 0.034894 0.688651
1.000000 0.000000 1.000000
1.000000 0.000000 1.000000
0.001785 0.354933 0.996312
0.334369 0.219415 0.990636
0.530622 0.021976 0.933650
0.675015 0.026210 0.897264
0.782787 0.033781 0.853982
0.867671 0.036224 0.804055
0.903501 0.035923 0.743158
1.000000 0.000000 1.000000
1.000000 0.000000 1.000000
0.002549 0.549800 0.997076
0.006705 0.475655 0.996791
0.421899 0.366692 0.995193
0.665704 0.208286 0.938406
0.783287 0.033449 0.885848
0.866535 0.037120 0.852018
0.902948 0.037041 0.802475
1.000000 0.000000 1.000000
1.000000 0.000000 1.000000
0.002894 0.637789 0.998046
0.002794 0.612446 0.996517
0.081888 0.562081 0.997029
0.517448 0.477086 0.996309
0.813665 0.381204 0.938603
0.884247 0.245347 0.903265
0.902528 0.037975 0.851772
1.000000 0.000000 1.000000
1.000000 0.000000 1.000000
0.003430 0.774032 1.001994
0.003412 0.769930 0.998084
0.003357 0.756285 0.994764
0.297756 0.724413 0.995451
0.741259 0.666764 0.991016
0.909245 0.587183 0.951056
0.947508 0.482379 0.924794
1.000000 0.252959 1.000000
1.000000 0.251480 1.000000
0.003961 0.908935 1.006881
0.003959 0.908903 1.002943
0.003957 0.908776 0.998352
0.003935 0.903750 0.994303
0.542161 0.887002 0.994311
0.874358 0.854366 0.992466
0.974399 0.809429 0.968836
1.000000 0.713460 1.000000
1.000000 0.712893 1.000000
0.004226 0.976710 1.007072
0.004225 0.976688 1.003155
0.004223 0.976624 0.998750
0.004220 0.976306 0.994404
0.237511 0.975052 0.990874
0.771796 0.966477 0.990615
0.955123 0.950372 0.988313
0.992507 0.925552 0.974865
1.000000 0.919689 0.991668
0.004312 0.998407 1.009268
0.004310 0.998388 1.005347
0.004308 0.998333 1.000898
0.004306 0.998063 0.996427
0.004301 0.997288 0.992485
0.647556 0.996547 0.990067
0.907076 0.991481 0.989172
0.985683 0.985683 0.985683
0.999561 0.985341 0.985792
0.004315 0.998843 1.012966
0.004314 0.998841 1.009037
0.004312 0.998840 1.004576
0.004310 0.998838 1.000013
0.004308 0.998836 0.995895
0.423168 0.999324 0.992825
0.838817 0.999790 0.990246
0.964954 0.997835 0.988944
0.993862 0.995101 0.984837
0.348569 0.245817 0.991671
0.519762 0.020676 0.935322
0.614523 0.021573 0.919982
0.675547 0.025912 0.912192
0.784994 0.033415 0.895465
0.867124 0.037344 0.862857
0.902827 0.037302 0.816260
0.903393 0.036130 0.754170
1.000000 0.000000 1.000000
0.045117 0.464815 0.996793
0.424597 0.368042 0.995118
0.603566 0.213300 0.949890
0.673897 0.025796 0.912378
0.785059 0.033302 0.903096
0.867293 0.037595 0.889569
0.902480 0.038086 0.857603
0.902914 0.037113 0.806291
1.000000 0.000000 1.000000
0.002757 0.602809 0.997284
0.102573 0.556102 0.997217
0.503511 0.473513 0.996753
0.701888 0.362710 0.955447
0.799917 0.186070 0.919623
0.866931 0.037605 0.901412
0.902229 0.038678 0.888606
0.902498 0.038042 0.855313
1.000000 0.000000 1.000000
0.002951 0.651224 1.007481
0.002900 0.638789 1.003944
0.292141 0.609929 0.997811
0.575709 0.555931 0.997449
0.825129 0.482750 0.953695
0.898119 0.376871 0.936247
0.919195 0.206577 0.919195
0.902244 0.038642 0.886731
1.000000 0.000000 1.000000
0.003415 0.769163 1.012255
0.003412 0.768739 1.008238
0.003383 0.761820 1.004108
0.437537 0.744944 0.999470
0.782407 0.709480 0.993045
0.916599 0.655711 0.965914
0.956448 0.572365 0.956448
0.945393 0.463571 0.942805
1.000000 0.240186 1.000000
0.003959 0.907578 1.016973
0.003958 0.907547 1.013114
0.003955 0.907453 1.008885
0.231099 0.904358 1.004798
0.638783 0.896365 1.000830
0.897837 0.879678 0.997595
0.978749 0.853664 0.984137
0.980028 0.803770 0.978767
1.000000 0.708689 1.000000
0.004228 0.975783 1.020810
0.004226 0.975761 1.016913
0.004224 0.975697 1.012592
0.004222 0.975378 1.008437
0.424881 0.974416 1.005152
0.830913 0.968002 1.001318
0.966081 0.961412 0.997494
0.994661 0.949070 0.991799
1.000000 0.916871 0.999939
0.004315 0.997618 1.023044
0.004313 0.997600 1.019127
0.004311 0.997544 1.014720
0.004308 0.997272 1.010392
0.198969 0.996687 1.006834
0.751808 0.996093 1.004168
0.939426 0.991394 1.000451
0.989322 0.988349 0.996293
0.998236 0.983839 0.993374
0.004321 0.998848 1.026747
0.004319 0.998847 1.022827
0.004317 0.998845 1.018376
0.004316 0.998843 1.013898
0.004314 0.998841 1.009938
0.630786 0.999523 1.007266
0.898588 1.002753 1.004156
0.978586 1.000320 1.000118
0.995720 0.995720 0.995720
