luts/ra_seq_grade_v5.cube
TITLE "Generate by Resolve"
LUT_3D_SIZE 9
0 0 0
0.0102235 0 0
0.0912642 0 0
0.377661 0 0
0.60473 0 0
0.760815 0 0
0.866728 0 0
0.933623 0.000976577 0.000228885
0.970733 0.00236515 0.000961318
0 0.0180972 0
0.0407263 0.00943008 0
0.188876 0.0128023 0
0.354223 0.018555 0
0.51516 0.0260014 0
0.662058 0.035111 0
0.783993 0.0458991 0
0.87837 0.0572976 0
0.939147 0.0702678 0
0 0.185794 0
0.0483558 0.120821 0
0.217517 0.113115 0
0.396551 0.118441 0
0.56936 0.128649 0
0.721599 0.142123 0
0.840665 0.157061 0
0.922454 0.173449 0
0.967895 0.189975 0
0 0.385687 0
0.0499275 0.299046 0
0.22826 0.280018 0
0.427482 0.279164 0
0.613764 0.288136 0
0.768261 0.30161 0
0.881605 0.317433 0
0.95024 0.334646 0
0.983352 0.349722 0
0 0.586191 0
0.0538796 0.494575 0
0.231434 0.475837 0
0.446891 0.47097 0
0.648035 0.476326 0
0.805402 0.48777 0
0.909728 0.501411 0
0.966934 0.515892 0
0.991012 0.526696 0
0 0.762264 0
0.0582589 0.687633 0
0.235004 0.674189 0
0.457588 0.668482 0
0.670375 0.669673 0
0.830167 0.675853 0
0.927047 0.683696 0
0.974685 0.690776 0
0.993454 0.692805 0
0 0.89189 0
0.0629892 0.843671 0
0.24097 0.836347 0
0.464897 0.83241 0
0.682979 0.830167 0
0.843473 0.828855 0
0.933623 0.826978 0
0.976715 0.824537 0
0.994156 0.822293 0
0 0.963043 0
0.0687877 0.938628 0
0.247135 0.934142 0
0.46659 0.930175 0
0.681071 0.925063 0
0.840101 0.919493 0
0.93164 0.91487 0
0.976211 0.912093 0
0.994034 0.909194 0
0 0.992767 0
0.0748302 0.983276 0
0.252903 0.979995 0
0.464652 0.975647 0
0.673945 0.971862 0
0.835782 0.96875 0
0.930587 0.966278 3.0518e-05
0.976257 0.963989 6.10361e-05
0.993637 0.959411 0.000106813
0 0 0.0202335
0.00975052 0 0.0093843
0.09897 0 0.0178073
0.404334 0 0.0995193
0.61059 0 0.145037
0.762051 0 0.182162
0.867536 0 0.216327
0.934768 0 0.248524
0.972259 0.0009308 0.278309
0 0.0158236 0.0268406
0.0122988 0.010544 0.0165866
0.0919661 0.0157931 0.020737
0.219913 0.0217441 0.0276188
0.366598 0.0305943 0.0349889
0.521538 0.0391546 0.0433509
0.672755 0.049836 0.0526436
0.801663 0.0601816 0.061738
0.894392 0.0723278 0.0725567
0 0.160464 0.0543984
0.0186465 0.113817 0.0263981
0.119005 0.11368 0.0292363
0.261845 0.120394 0.0421302
0.404105 0.13579 0.0487984
0.5505 0.154299 0.0521248
0.695735 0.172732 0.0559701
0.820035 0.192508 0.0605325
0.907607 0.209384 0.0665141
0 0.350622 0.0751659
0.0250401 0.278523 0.0363317
0.121935 0.280018 0.0334936
0.294774 0.279377 0.039765
0.471458 0.288563 0.0540475
0.637583 0.30396 0.0669718
0.778408 0.322728 0.0774548
0.883711 0.344549 0.0841688
0.946258 0.363668 0.0882582
0 0.548531 0.0923781
0.031632 0.467079 0.0464179
0.136431 0.468788 0.0404669
0.301823 0.474388 0.0400244
0.506081 0.476814 0.0497597
0.688304 0.487526 0.0621958
0.827726 0.502144 0.0758526
0.920363 0.517113 0.0873579
0.967895 0.529397 0.0977035
0 0.73286 0.108354
0.0369879 0.660166 0.0551003
0.152026 0.661585 0.0474708
0.314229 0.669184 0.0442359
0.518593 0.672282 0.0471199
0.714412 0.674891 0.056672
0.853956 0.680842 0.0690166
0.93518 0.687175 0.0813153
0.974624 0.688533 0.0922408
0 0.872877 0.120958
0.0424811 0.822477 0.0623026
0.16582 0.823407 0.0533455
0.330602 0.828473 0.049134
0.525704 0.830533 0.0483558
0.720485 0.827161 0.0533455
0.860105 0.822095 0.0624247
0.938521 0.819287 0.0742657
0.97705 0.817411 0.0850843
0 0.953719 0.133349
0.0480049 0.926833 0.0704967
0.178531 0.925261 0.0587778
0.342519 0.925063 0.0537881
0.525216 0.922454 0.0509804
0.708324 0.91751 0.0521248
0.852995 0.912367 0.0579995
0.936751 0.908537 0.0677653
0.976822 0.905501 0.0784772
0 0.98967 0.146014
0.0531777 0.977401 0.0782483
0.188525 0.97377 0.0646982
0.350393 0.971511 0.057908
0.526452 0.969711 0.054139
0.702022 0.967788 0.053254
0.847166 0.965026 0.0562448
0.934981 0.962325 0.0629892
0.975418 0.957198 0.0722057
0 0 0.122225
0.0119631 0 0.0869001
0.132708 0 0.14342
0.433616 0 0.29926
0.628305 0 0.355795
0.774258 0 0.404334
0.8766 0 0.448096
0.940719 0 0.488746
0.975647 0.000839246 0.52546
0 0.0187228 0.149432
0.0148623 0.0115511 0.112413
0.0986801 0.0163729 0.124743
0.228458 0.0218814 0.142763
0.376272 0.0302739 0.161608
0.53283 0.0381476 0.182162
0.684642 0.0484474 0.20322
0.81178 0.0583505 0.224872
0.90193 0.0697032 0.245747
0 0.160632 0.200855
0.0193942 0.11339 0.137407
0.103593 0.118441 0.13904
0.228061 0.129778 0.147478
0.372229 0.144717 0.158846
0.527916 0.160296 0.172183
0.682261 0.177264 0.18706
0.813474 0.194873 0.201953
0.904967 0.2112 0.215732
0 0.348379 0.239582
0.0250401 0.276387 0.164202
0.117464 0.279591 0.159976
0.257267 0.290059 0.164355
0.429129 0.299046 0.193057
0.583261 0.319142 0.204669
0.72813 0.341848 0.210483
0.848295 0.363226 0.218311
0.926421 0.380484 0.226062
0 0.54583 0.272953
0.0309758 0.464408 0.190692
0.13286 0.467079 0.181445
0.274662 0.480217 0.181628
0.462943 0.488014 0.191424
0.648508 0.497017 0.218723
0.794751 0.511971 0.242161
0.895186 0.529152 0.256672
0.951812 0.543389 0.262837
0 0.73106 0.303319
0.0358892 0.658015 0.213565
0.148135 0.659205 0.200855
0.297124 0.670619 0.197589
0.473167 0.680842 0.197955
0.672282 0.682734 0.211749
0.823606 0.686732 0.236408
0.91606 0.691234 0.257465
0.963363 0.693034 0.273381
0 0.872068 0.329259
0.0405585 0.821164 0.234806
0.161273 0.821347 0.218112
0.316579 0.827161 0.211749
0.488258 0.832609 0.208667
0.671336 0.831479 0.2103
0.82623 0.824353 0.225071
0.92015 0.820783 0.24535
0.967453 0.819471 0.263828
0 0.953155 0.352422
0.0457313 0.925261 0.252903
0.172549 0.922759 0.233021
0.32903 0.92224 0.22269
0.49337 0.920668 0.21593
0.661585 0.918303 0.212299
0.814603 0.913954 0.217517
0.917113 0.909728 0.233616
0.96733 0.906157 0.251698
0 0.988998 0.373342
0.0505379 0.975692 0.268467
0.181445 0.971572 0.244358
0.337346 0.969482 0.231632
0.499931 0.968353 0.223682
0.661341 0.967391 0.218112
0.80766 0.965652 0.217517
0.912764 0.963043 0.226261
0.965026 0.957671 0.23978
0 0 0.260639
0.0165866 0 0.218112
0.230243 0 0.397955
0.460517 0 0.489235
0.646845 0 0.545342
0.788342 0 0.595224
0.886732 0 0.639002
0.947311 1.5259e-05 0.678691
0.979477 0.000885023 0.712383
0 0.0219425 0.302678
0.0177157 0.0135195 0.247532
0.106523 0.0177615 0.263828
0.238987 0.0234836 0.288136
0.388983 0.0311742 0.314443
0.547066 0.0390631 0.342748
0.698436 0.0488746 0.371542
0.823972 0.0585184 0.401266
0.91078 0.0694743 0.428183
0 0.164355 0.358495
0.0208286 0.115923 0.277882
0.108492 0.120256 0.281514
0.235813 0.131563 0.295628
0.38262 0.145693 0.313588
0.5402 0.160952 0.333974
0.694606 0.177264 0.355795
0.824155 0.19469 0.377661
0.912627 0.2103 0.397482
0 0.351293 0.406455
0.0263981 0.27895 0.316152
0.120684 0.281727 0.313802
0.253895 0.294774 0.322728
0.406455 0.311009 0.336004
0.567407 0.329702 0.35108
0.721386 0.348821 0.367041
0.846677 0.367727 0.383078
0.926314 0.383551 0.396551
0 0.548791 0.451514
0.031693 0.467323 0.355123
0.135134 0.46952 0.347707
0.276387 0.482658 0.35198
0.437156 0.498955 0.360067
0.622538 0.508278 0.3897
0.764126 0.526696 0.403861
0.87126 0.545586 0.408591
0.938109 0.558358 0.412604
0 0.733974 0.492638
0.0361486 0.660395 0.390646
0.149096 0.661341 0.378134
0.297551 0.671809 0.377188
0.461723 0.684642 0.380484
0.642329 0.691447 0.387808
0.802029 0.692805 0.416144
0.898894 0.696849 0.438361
0.951812 0.700908 0.448341
0 0.874327 0.528649
0.0405585 0.82266 0.422522
0.16144 0.822095 0.40528
0.315511 0.826978 0.399619
0.480461 0.831662 0.397482
0.64329 0.833356 0.395361
0.800351 0.827726 0.402914
0.904311 0.823789 0.426291
0.958373 0.82266 0.447364
0 0.953948 0.558602
0.0453803 0.925582 0.447608
0.171283 0.922133 0.424643
0.325658 0.920363 0.412833
0.485817 0.918578 0.404807
0.641382 0.91751 0.400092
0.787305 0.915801 0.398672
0.899947 0.911696 0.411658
0.958541 0.907744 0.432441
0 0.9888 0.583993
0.0497597 0.974731 0.467079
0.17908 0.970275 0.437888
0.333532 0.968353 0.422751
0.493126 0.96733 0.413779
0.646143 0.96672 0.407874
0.784192 0.965972 0.403388
0.894133 0.964157 0.405997
0.955215 0.958618 0.41709
0 0 0.407401
0.023682 0 0.3738
0.268894 0 0.58497
0.48484 0 0.651606
0.666102 0 0.699779
0.802411 0 0.742077
0.895857 0 0.778607
0.95285 0.000167849 0.811597
0.982757 0.000991836 0.83917
0 0.0267185 0.457832
0.0205692 0.0157931 0.390173
0.114931 0.0195621 0.40882
0.250309 0.0254978 0.436927
0.402914 0.0329137 0.469276
0.562524 0.0408179 0.50312
0.713283 0.05037 0.537987
0.836912 0.0595712 0.572534
0.920043 0.0703899 0.602777
0 0.16965 0.510735
0.0229038 0.119844 0.422522
0.114092 0.123766 0.429129
0.244358 0.134813 0.448096
0.393942 0.148287 0.47219
0.553445 0.163226 0.498482
0.707652 0.179446 0.525963
0.835416 0.195956 0.553201
0.92047 0.2112 0.575708
0 0.356252 0.564721
0.0280766 0.28365 0.470253
0.12488 0.286 0.47097
0.261051 0.298405 0.48484
0.416144 0.314229 0.50338
0.578637 0.332174 0.523507
0.732174 0.350622 0.543877
0.854124 0.368627 0.5635
0.9308 0.383322 0.578149
0 0.554177 0.616449
0.0328527 0.472679 0.519081
0.138872 0.474144 0.51516
0.282155 0.486793 0.523507
0.442267 0.502632 0.536019
0.605951 0.519814 0.549523
0.754406 0.535775 0.56228
0.867704 0.550744 0.573754
0.936339 0.560571 0.580575
0 0.739162 0.663249
0.0369268 0.665385 0.564233
0.151537 0.665156 0.554681
0.301396 0.674891 0.556634
0.464897 0.686732 0.562768
0.627359 0.697307 0.569116
0.783154 0.699779 0.588632
0.880308 0.705852 0.597177
0.939055 0.711925 0.593759
0 0.877882 0.70338
0.0411688 0.826032 0.602777
0.162905 0.823972 0.587655
0.317433 0.827726 0.583017
0.480705 0.831098 0.581064
0.63592 0.832227 0.578882
0.777569 0.831662 0.578149
0.891752 0.826978 0.598154
0.950469 0.826795 0.61767
0 0.955139 0.733974
0.0456397 0.926314 0.63093
0.171633 0.921721 0.608148
0.3252 0.918837 0.59498
0.484123 0.916854 0.587167
0.636866 0.91632 0.582528
0.771374 0.916457 0.580087
0.885649 0.914214 0.583749
0.951263 0.909728 0.603021
0 0.988769 0.756878
0.0496681 0.973953 0.649226
0.178531 0.969589 0.6206
0.332403 0.967498 0.605219
0.490929 0.966445 0.595956
0.6421 0.965805 0.590097
0.773648 0.965576 0.586191
0.879835 0.965026 0.583749
0.94699 0.95964 0.586923
0 0 0.553201
0.0420386 0 0.559335
0.299687 0 0.727001
0.50779 0 0.773236
0.685115 0 0.811414
0.815915 0 0.84538
0.905226 0 0.873686
0.958618 0.000335698 0.89836
0.985534 0.00112917 0.918181
0 0.0312963 0.600824
0.0243992 0.0180972 0.530129
0.123476 0.0214084 0.550011
0.262242 0.0278172 0.580819
0.417319 0.0348516 0.615717
0.578393 0.0430915 0.651835
0.728588 0.0522927 0.688304
0.849271 0.0612802 0.722499
0.927565 0.0719768 0.751095
0 0.176364 0.647089
0.0256199 0.124468 0.563012
0.120256 0.128161 0.572778
0.253697 0.138872 0.595712
0.405997 0.152346 0.623514
0.567163 0.166476 0.653025
0.721157 0.182712 0.683207
0.846677 0.198505 0.711254
0.926833 0.213016 0.733303
0 0.362768 0.700908
0.0300145 0.289418 0.616693
0.130266 0.291554 0.621332
0.268894 0.303105 0.638529
0.426291 0.318929 0.660166
0.590097 0.336233 0.683207
0.742977 0.354223 0.704723
0.861723 0.370642 0.724758
0.93518 0.38497 0.738262
0 0.561059 0.752529
0.0342718 0.479011 0.670848
0.143252 0.480461 0.670848
0.288777 0.491905 0.682261
0.450294 0.506813 0.696406
0.614496 0.522759 0.711025
0.761227 0.537987 0.7243
0.872068 0.550988 0.735103
0.938216 0.559091 0.740276
0 0.745296 0.797909
0.0379492 0.671336 0.718685
0.154788 0.670375 0.713054
0.30631 0.678935 0.717327
0.470497 0.689204 0.7243
0.631403 0.698436 0.730831
0.769497 0.704952 0.735103
0.871748 0.709911 0.736904
0.936233 0.713954 0.738262
0 0.882094 0.834287
0.0422217 0.829969 0.757504
0.165179 0.827161 0.746532
0.320256 0.829038 0.743435
0.482658 0.830533 0.741176
0.636393 0.830732 0.738476
0.769497 0.832227 0.737575
0.879988 0.830533 0.746532
0.940719 0.833356 0.753368
0 0.956558 0.859129
0.0463417 0.927245 0.782132
0.172915 0.921614 0.762875
0.326101 0.917784 0.751507
0.48484 0.915663 0.744884
0.636637 0.915267 0.740963
0.768475 0.915663 0.739162
0.872236 0.91606 0.738262
0.944793 0.911971 0.749432
0 0.988769 0.875792
0.0499275 0.973495 0.796399
0.17908 0.969085 0.772808
0.332631 0.966995 0.759991
0.490929 0.965728 0.752117
0.641382 0.965026 0.747158
0.771374 0.964935 0.744045
0.8719 0.965179 0.742077
0.937804 0.960906 0.736461
0 0 0.684871
0.101488 0 0.773022
0.325658 0 0.826795
0.530129 0 0.859785
0.702922 0 0.888853
0.829602 0 0.912764
0.914611 0 0.932784
0.964385 0.000518807 0.950072
0.988357 0.00128176 0.962173
0 0.0357519 0.718456
0.0286564 0.0204471 0.65565
0.133028 0.0242008 0.675853
0.275105 0.030457 0.706081
0.432441 0.0371099 0.740063
0.594736 0.0456397 0.773648
0.744045 0.05449 0.806531
0.860914 0.0636759 0.83711
0.935088 0.0740368 0.859785
0 0.182895 0.755016
0.028397 0.130114 0.687846
0.126696 0.133684 0.70045
0.263432 0.143908 0.724758
0.418738 0.156573 0.752743
0.581308 0.170916 0.781292
0.734874 0.186526 0.808591
0.85655 0.201953 0.833722
0.933104 0.216129 0.851698
0 0.370199 0.806912
0.0320745 0.296483 0.741634
0.13611 0.297978 0.750057
0.277668 0.3093 0.768261
0.436927 0.3243 0.78999
0.601556 0.340948 0.811032
0.752956 0.357824 0.830732
0.869001 0.3738 0.847807
0.939361 0.386633 0.857511
0 0.568872 0.853635
0.0358282 0.486549 0.794125
0.147967 0.487282 0.798093
0.295842 0.497993 0.80972
0.458808 0.511971 0.823606
0.622782 0.526452 0.836912
0.767849 0.5402 0.848142
0.876112 0.55198 0.855741
0.939788 0.558846 0.858167
0 0.751705 0.891752
0.0394141 0.678462 0.838041
0.158511 0.676555 0.836347
0.311437 0.683696 0.841794
0.476326 0.692348 0.847974
0.636149 0.699779 0.852506
0.771984 0.704509 0.854597
0.873518 0.708782 0.855894
0.937484 0.712825 0.85655
0 0.886473 0.919936
0.0434424 0.834669 0.87013
0.168017 0.829786 0.863172
0.323629 0.83035 0.861067
0.485084 0.829969 0.85864
0.638529 0.829786 0.856703
0.770947 0.831098 0.856214
0.871748 0.833356 0.856703
0.936446 0.835782 0.857023
0 0.958068 0.935607
0.0472114 0.928298 0.888319
0.174548 0.921401 0.874006
0.327901 0.91725 0.865599
0.486549 0.91487 0.860746
0.638056 0.914351 0.858
0.769299 0.915007 0.85687
0.869642 0.91606 0.856703
0.937804 0.913954 0.858488
0 0.988693 0.945312
0.0505379 0.973327 0.896254
0.180163 0.968811 0.881117
0.333974 0.966659 0.8719
0.491905 0.965179 0.866087
0.6421 0.96463 0.862684
0.771572 0.964385 0.860426
0.870939 0.96463 0.859297
0.931746 0.961547 0.853147
0 0 0.794125
0.129625 0 0.865278
0.349493 0 0.894667
0.552468 0 0.918044
0.720485 0 0.93727
0.84329 0 0.954025
0.923278 0 0.968063
0.969253 0.000717174 0.978576
0.990997 0.00144961 0.985306
0 0.0406348 0.809155
0.0329137 0.0233616 0.75874
0.143099 0.0271763 0.777981
0.28835 0.033051 0.806165
0.447852 0.0396735 0.836347
0.611322 0.0483558 0.865278
0.758541 0.0569467 0.892287
0.872557 0.0662852 0.915145
0.942596 0.0765393 0.930587
0 0.190875 0.842542
0.0312352 0.136278 0.788952
0.134325 0.139528 0.803342
0.274235 0.149432 0.826413
0.431724 0.16144 0.852338
0.595712 0.175814 0.876432
0.748196 0.191058 0.897963
0.866239 0.205768 0.916854
0.939147 0.219318 0.928191
0 0.378134 0.885481
0.0342107 0.303746 0.838972
0.142275 0.304814 0.849271
0.286641 0.315724 0.866239
0.448096 0.330159 0.885481
0.613275 0.346349 0.901274
0.762676 0.362325 0.91606
0.875944 0.377188 0.92694
0.943221 0.389227 0.932891
0 0.577417 0.92224
0.0375067 0.494575 0.884688
0.152834 0.494575 0.890043
0.302892 0.504845 0.900084
0.467567 0.517617 0.910918
0.631159 0.530617 0.920775
0.77406 0.543145 0.927352
0.879499 0.553445 0.931746
0.941344 0.559335 0.932479
0 0.758541 0.949279
0.0411688 0.685588 0.918441
0.162249 0.682506 0.919371
0.317006 0.688075 0.923278
0.48217 0.695506 0.927153
0.640665 0.70135 0.929656
0.77467 0.704509 0.930282
0.875303 0.708782 0.931121
0.938735 0.712612 0.931533
0 0.89044 0.967285
0.0449378 0.839353 0.9402
0.171099 0.833158 0.936446
0.32723 0.831846 0.934874
0.488014 0.829969 0.932784
0.640909 0.829221 0.93164
0.773022 0.830732 0.931212
0.873198 0.832792 0.931426
0.937484 0.835416 0.931838
0 0.959411 0.975692
0.0482643 0.929137 0.950149
0.176364 0.921401 0.941772
0.330159 0.917113 0.936645
0.488991 0.91487 0.93373
0.640192 0.913954 0.932158
0.770947 0.914473 0.931426
0.870939 0.915663 0.931426
0.934142 0.915267 0.930282
0 0.988617 0.980224
0.0513313 0.973159 0.954192
0.181811 0.968643 0.946151
0.335775 0.966522 0.940505
0.493614 0.964935 0.937072
0.643519 0.964233 0.934874
0.772808 0.964065 0.933623
0.87158 0.964233 0.932998
0.931212 0.961303 0.92871
0 0 0.887922
0.153323 0 0.921294
0.371328 0 0.937804
0.573754 0 0.953796
0.737575 0 0.967788
0.855085 0 0.978531
0.930907 0.000183108 0.986664
0.973495 0.0009308 0.992676
0.992676 0.00161746 0.996323
0 0.0462501 0.876432
0.0370489 0.0269169 0.839734
0.153155 0.0302739 0.857023
0.30161 0.0357519 0.881605
0.46392 0.0429999 0.905364
0.628305 0.0511635 0.927672
0.773236 0.0594797 0.947066
0.884031 0.0693675 0.961547
0.949126 0.0790417 0.971069
0 0.198505 0.902983
0.0341497 0.142931 0.866575
0.141955 0.145373 0.881285
0.285145 0.154788 0.900603
0.444938 0.166796 0.921096
0.610101 0.180896 0.938216
0.760601 0.195239 0.95285
0.875944 0.209567 0.964706
0.945113 0.222889 0.971115
0 0.387106 0.936645
0.036408 0.311437 0.9084
0.148608 0.312505 0.918837
0.295842 0.322957 0.93164
0.459297 0.336675 0.945312
0.624979 0.35198 0.955688
0.772198 0.366827 0.964858
0.882582 0.380957 0.970901
0.94667 0.391592 0.973785
0 0.586191 0.963439
0.0395819 0.50338 0.942596
0.15787 0.502388 0.947936
0.310369 0.511223 0.954818
0.476081 0.523507 0.961852
0.639246 0.535286 0.967681
0.780056 0.546578 0.971069
0.882414 0.554437 0.97293
0.943023 0.559823 0.973098
0 0.765576 0.980789
0.0429999 0.692805 0.965103
0.166308 0.688746 0.966522
0.322499 0.692805 0.968917
0.488014 0.698436 0.970947
0.644709 0.70248 0.971801
0.777569 0.704952 0.971969
0.877409 0.708782 0.972366
0.940093 0.712825 0.972595
0 0.89427 0.990082
0.0464179 0.843671 0.977569
0.174365 0.835981 0.975647
0.330602 0.83241 0.974517
0.491173 0.829969 0.973205
0.643992 0.829419 0.972595
0.775509 0.830533 0.972427
0.874983 0.83241 0.972473
0.938521 0.835233 0.972702
0 0.960678 0.99353
0.0494087 0.929656 0.982162
0.178363 0.921294 0.977508
0.332403 0.916594 0.974731
0.490929 0.914076 0.973159
0.641382 0.913161 0.972198
0.771374 0.913161 0.97174
0.874174 0.916716 0.973037
0.937804 0.917906 0.973098
0 0.989517 0.995544
0.0524758 0.974456 0.98471
0.184527 0.969818 0.981003
0.339376 0.967453 0.978012
0.497749 0.965972 0.976089
0.647318 0.965103 0.974853
0.775921 0.96463 0.97406
0.873686 0.964538 0.973602
0.934356 0.96289 0.971908
