luts/ra_seq_grade_v5.cube
TITLE "Generate by Resolve"
LUT_3D_SIZE 33
0 0 0
0 0 0
0 0 0
0.00355535 0 0
0.0102235 0 0
0.0216678 0 0
0.0390631 0 0
0.0618448 0 0
0.0912642 0 0
0.128649 0 0
0.176715 0 0
0.25568 0 0
0.377661 0 0
0.444938 0 0
0.503624 0 0
0.556878 0 0
0.60473 0 0
0.649226 0 0
0.690333 0 0
0.72723 0 0
0.760815 0 0
0.791638 0 0
0.818906 0 0
0.844907 0 0
0.866728 0 0
0.887526 0.000137331 0
0.904433 0.000427253 0
0.920775 0.000701915 0
0.933623 0.000976577 0.000228885
0.946365 0.00123598 0.00047303
0.955139 0.00154116 0.000488289
0.963592 0.00190738 0.000732433
0.970733 0.00236515 0.000961318
0 0 0
0 0 0
0 0 0
0.00309758 0 0
0.00987259 0 0
0.0227207 0 0
0.0447547 0 0
0.0791485 0 0
0.174365 0 0
0.243748 0 0
0.303105 0 0
0.358724 0 0
0.41236 0 0
0.463676 0 0
0.512947 0 0
0.560067 0 0
0.604242 0 0
0.645426 0 0
0.684169 0.000289921 0
0.719356 0.00062562 0
0.752331 0.0009308 0
0.78233 0.00123598 0
0.809903 0.00154116 0
0.835416 0.00196841 0
0.858167 0.00250248 0
0.879347 0.00300603 0
0.897444 0.00349432 0
0.914214 0.00396735 0
0.928298 0.00442512 0
0.941238 0.00492866 0
0.952132 0.00579843 0
0.960754 0.00665293 0.000137331
0.968811 0.0074464 0.000335698
0 0 0
0 0 0
0 0 0
0.00114443 0 0
0.00814832 0 0
0.0444038 0 0
0.0809796 0 0
0.120394 0 0
0.161608 0 0
0.20322 0.000366217 0
0.244953 0.000854505 0
0.286641 0.00129702 0
0.32813 0.00177005 0
0.369528 0.00250248 0
0.410941 0.00321965 0
0.451759 0.00387579 0
0.492638 0.00451667 0
0.532586 0.00541695 0
0.571557 0.00657664 0
0.609369 0.00764477 0
0.645426 0.00872816 0
0.680125 0.00975052 0
0.712612 0.0107424 0
0.744259 0.0122225 0
0.772808 0.0138552 0
0.800534 0.0154116 0
0.825666 0.016968 0
0.84976 0.0184787 0
0.870939 0.0199435 0
0.890959 0.0213626 0
0.908141 0.0233616 0
0.922545 0.0254978 0
0.935088 0.0275578 0
0 0 0
0 0.000823987 0
0.00102235 0.000732433 0
0.011429 0.00103761 0
0.0334936 0.00141909 0
0.0625315 0.00190738 0
0.0982681 0.00257877 0
0.136919 0.00323491 0
0.176898 0.00387579 0
0.217319 0.00450141 0
0.258259 0.00541695 0
0.29926 0.00657664 0
0.339834 0.00770581 0
0.379538 0.00885023 0
0.419684 0.00993362 0
0.459297 0.0110018 0
0.498238 0.0128481 0
0.536507 0.0146181 0
0.573999 0.0163272 0
0.610101 0.0180514 0
0.644953 0.0197299 0
0.678462 0.0213626 0
0.710124 0.023621 0
0.740963 0.0260777 0
0.768887 0.028397 0
0.796399 0.0307164 0
0.821164 0.0329747 0
0.845548 0.0352483 0
0.866728 0.0374304 0
0.887404 0.0400244 0
0.904433 0.0429236 0
0.919493 0.0456397 0
0.931945 0.0484474 0
0 0.0180972 0
0 0.0188907 0
0.00218204 0.0102541 0
0.0163729 0.009308 0
0.0407263 0.00943008 0
0.0726635 0.00991836 0
0.108919 0.010544 0
0.148135 0.0114595 0
0.188876 0.0128023 0
0.230045 0.0141909 0
0.271458 0.0156252 0
0.312947 0.0170901 0
0.354223 0.018555 0
0.395132 0.0200656 0
0.435508 0.0215457 0
0.475837 0.023743 0
0.51516 0.0260014 0
0.553933 0.028336 0
0.591562 0.0305943 0
0.627604 0.0328527 0
0.662058 0.035111 0
0.695277 0.0373083 0
0.726558 0.0399329 0
0.756268 0.0429236 0
0.783993 0.0458991 0
0.810101 0.0487984 0
0.834852 0.0516823 0
0.857359 0.05449 0
0.87837 0.0572976 0
0.89691 0.06009 0
0.913954 0.063447 0
0.92694 0.066865 0
0.939147 0.0702678 0
0 0.0508125 0
0 0.0488746 0
0.00274662 0.0314946 0
0.0180972 0.0274357 0
0.0451972 0.0260777 0
0.0788128 0.0260014 0
0.116625 0.0266575 0
0.156725 0.0277562 0
0.198138 0.0290379 0
0.239979 0.0305333 0
0.282155 0.0320745 0
0.3243 0.033753 0
0.366369 0.0354925 0
0.408347 0.0373083 0
0.449561 0.0394141 0
0.490684 0.0419623 0
0.530861 0.0445869 0
0.570092 0.0471199 0
0.608148 0.0497597 0
0.64448 0.0524758 0
0.679408 0.0551003 0
0.711925 0.0577249 0
0.743633 0.060441 0
0.772396 0.0637827 0
0.800153 0.0672007 0
0.825467 0.0707256 0
0.84976 0.0741436 0
0.87126 0.0774548 0
0.891356 0.0808576 0
0.90866 0.0842756 0
0.924529 0.0876936 0
0.936446 0.0909743 0
0.948013 0.0948959 0
0 0.090837 0
0 0.0861067 0
0.00315862 0.0605325 0
0.0187686 0.0543984 0
0.0472114 0.0512398 0
0.0824598 0.0500191 0
0.121935 0.049836 0
0.163394 0.0504616 0
0.205936 0.0515145 0
0.248722 0.0528267 0
0.291554 0.0543984 0
0.334432 0.0561532 0
0.376715 0.0579995 0
0.419684 0.0599222 0
0.461967 0.0623026 0
0.503624 0.0650339 0
0.54461 0.0678874 0
0.584237 0.0708476 0
0.622782 0.0738079 0
0.659205 0.0767681 0
0.694148 0.0798352 0
0.727001 0.0829175 0
0.757916 0.0859846 0
0.787091 0.0891737 0
0.81384 0.0928054 0
0.839536 0.0967269 0
0.862211 0.100511 0
0.883879 0.104433 0
0.901793 0.108354 0
0.919371 0.112276 0
0.933196 0.11606 0
0.945113 0.119692 0
0.954665 0.123201 0
0 0.137575 0
0 0.12929 0
0.00355535 0.0974289 0
0.0191501 0.0879225 0
0.0480049 0.0831464 0
0.0845045 0.080415 0
0.125444 0.0792706 0
0.168551 0.0790417 0
0.212299 0.0796063 0
0.256275 0.0807507 0
0.300114 0.0822309 0
0.343648 0.0839399 0
0.386862 0.0858778 0
0.430304 0.0879225 0
0.473411 0.0902876 0
0.515648 0.09308 0
0.557382 0.0961624 0
0.597665 0.0992447 0
0.636393 0.102464 0
0.673472 0.105684 0
0.708324 0.109056 0
0.741634 0.112551 0
0.771984 0.11606 0
0.801099 0.119554 0
0.827543 0.123064 0
0.852506 0.126864 0
0.874815 0.130755 0
0.894789 0.135134 0
0.912764 0.139361 0
0.928298 0.143587 0
0.942184 0.147799 0
0.952453 0.151537 0
0.9617 0.155428 0
0 0.185794 0
0 0.175448 0
0.00393683 0.138705 0
0.0195163 0.127352 0
0.0483558 0.120821 0
0.08542 0.116625 0
0.12784 0.114229 0
0.172549 0.113252 0
0.217517 0.113115 0
0.262638 0.113817 0
0.307805 0.114931 0
0.352422 0.116625 0
0.396551 0.118441 0
0.440314 0.120684 0
0.484123 0.123064 0
0.527184 0.125582 0
0.56936 0.128649 0
0.610346 0.131899 0
0.649226 0.135134 0
0.686946 0.138552 0
0.721599 0.142123 0
0.754604 0.145861 0
0.785443 0.149432 0
0.813657 0.153323 0
0.840665 0.157061 0
0.864149 0.160952 0
0.88661 0.164843 0
0.904967 0.168917 0
0.922454 0.173449 0
0.936751 0.177813 0
0.949752 0.182345 0
0.959091 0.18616 0
0.967895 0.189975 0
0 0.235203 0
0 0.222889 0
0.0043183 0.182345 0
0.0200198 0.170001 0
0.0485237 0.162249 0
0.0856489 0.157061 0
0.129137 0.153643 0
0.175265 0.151537 0
0.221698 0.150729 0
0.26804 0.150881 0
0.314229 0.151705 0
0.360067 0.153002 0
0.405524 0.154788 0
0.450294 0.156893 0
0.49482 0.159335 0
0.538476 0.161929 0
0.581064 0.164691 0
0.622538 0.167651 0
0.661585 0.171099 0
0.699107 0.174548 0
0.734432 0.17818 0
0.767025 0.181979 0
0.797909 0.185794 0
0.825849 0.189792 0
0.852018 0.19379 0
0.875303 0.197955 0
0.895979 0.201953 0
0.914611 0.206119 0
0.930282 0.2103 0
0.944686 0.214542 0
0.955932 0.219318 0
0.965408 0.223087 0
0.972473 0.226856 0
0 0.285359 0
0 0.271244 0
0.00466926 0.227466 0
0.0206607 0.214343 0
0.0487984 0.206302 0
0.0857557 0.20032 0
0.129625 0.195956 0
0.176898 0.193057 0
0.224674 0.191608 0
0.272526 0.191058 0
0.319799 0.191424 0
0.367041 0.192325 0
0.41355 0.193957 0
0.459541 0.195956 0
0.504845 0.198138 0
0.549279 0.200855 0
0.592538 0.203586 0
0.634012 0.206668 0
0.673701 0.209934 0
0.711025 0.213199 0
0.746532 0.216922 0
0.77882 0.220706 0
0.809155 0.224674 0
0.837293 0.228855 0
0.862364 0.233021 0
0.885939 0.237201 0
0.904967 0.241367 0
0.922972 0.245747 0
0.937804 0.250111 0
0.950866 0.25449 0
0.961852 0.258854 0
0.970047 0.262242 0
0.976776 0.265904 0
0 0.335546 0
0 0.320256 0
0.00521859 0.274022 0
0.0212863 0.260441 0
0.0493172 0.252094 0
0.0857557 0.24535 0
0.129778 0.240574 0
0.177813 0.237003 0
0.226856 0.234806 0
0.275959 0.233616 0
0.324758 0.233616 0
0.3729 0.234211 0
0.420859 0.235401 0
0.468055 0.237201 0
0.514168 0.239582 0
0.559579 0.241962 0
0.603265 0.244953 0
0.645182 0.247929 0
0.685588 0.251301 0
0.722499 0.254688 0
0.757504 0.258061 0
0.790204 0.262043 0
0.819852 0.265904 0
0.847974 0.269963 0
0.872236 0.274235 0
0.89427 0.278523 0
0.913558 0.282795 0
0.929961 0.287282 0
0.944793 0.291554 0
0.956329 0.296056 0
0.967163 0.300542 0
0.97406 0.30396 0
0.980789 0.307164 0
0 0.385687 0
0 0.36997 0
0.00584421 0.321386 0
0.0221408 0.307805 0
0.0499275 0.299046 0
0.0859846 0.292195 0
0.129946 0.286854 0
0.178363 0.282795 0
0.22826 0.280018 0
0.278737 0.278523 0
0.328801 0.278096 0
0.378134 0.278309 0
0.427482 0.279164 0
0.475837 0.280873 0
0.523003 0.282795 0
0.569116 0.285359 0
0.613764 0.288136 0
0.656123 0.291127 0
0.696178 0.29456 0
0.733761 0.297978 0
0.768261 0.30161 0
0.8009 0.305455 0
0.83035 0.3093 0
0.857191 0.313375 0
0.881605 0.317433 0
0.90219 0.321599 0
0.921294 0.325872 0
0.936446 0.330373 0
0.95024 0.334646 0
0.961456 0.339147 0
0.97084 0.34342 0
0.977844 0.346578 0
0.983352 0.349722 0
0 0.43621 0
0 0.420157 0
0.00645457 0.369528 0
0.0231632 0.355795 0
0.0508125 0.346807 0
0.0864424 0.340047 0
0.130114 0.334646 0
0.178714 0.330373 0
0.229252 0.32723 0
0.280659 0.3252 0
0.331945 0.3243 0
0.382849 0.324071 0
0.433143 0.324971 0
0.482902 0.326329 0
0.531106 0.327901 0
0.578149 0.330373 0
0.623514 0.333074 0
0.666346 0.336004 0
0.706523 0.339376 0
0.744472 0.342748 0
0.778607 0.346349 0
0.810666 0.350179 0
0.840284 0.354223 0
0.866087 0.358053 0
0.889906 0.362097 0
0.909728 0.366369 0
0.927352 0.370428 0
0.942596 0.374472 0
0.954971 0.378836 0
0.966201 0.383078 0
0.974227 0.387335 0
0.981216 0.390402 0
0.985641 0.392996 0
0 0.487037 0
0 0.470497 0
0.00703441 0.418509 0
0.0242618 0.404334 0
0.0517739 0.395361 0
0.0870069 0.388754 0
0.130434 0.383078 0
0.17908 0.378836 0
0.230045 0.375372 0
0.282368 0.373342 0
0.334874 0.372 0
0.386633 0.371771 0
0.438117 0.372229 0
0.489235 0.373129 0
0.538476 0.374701 0
0.586191 0.376715 0
0.632349 0.379309 0
0.675853 0.382376 0
0.716197 0.385443 0
0.75378 0.388754 0
0.78854 0.392523 0
0.819852 0.396307 0
0.849104 0.400092 0
0.874495 0.404105 0
0.89691 0.408118 0
0.916991 0.412131 0
0.933104 0.416144 0
0.94786 0.420157 0
0.959319 0.424414 0
0.969421 0.428428 0
0.97734 0.432197 0
0.983276 0.435035 0
0.987716 0.437156 0
0 0.536995 0
0 0.520562 0
0.00756847 0.467567 0
0.0253605 0.453452 0
0.0527352 0.444694 0
0.0878157 0.438117 0
0.131075 0.432914 0
0.179446 0.428656 0
0.23064 0.425345 0
0.28365 0.422995 0
0.337133 0.421576 0
0.390173 0.420859 0
0.442741 0.421103 0
0.49482 0.421805 0
0.545098 0.423224 0
0.593759 0.425116 0
0.640436 0.427482 0
0.684642 0.430076 0
0.7252 0.433143 0
0.762676 0.43621 0
0.797711 0.439582 0
0.828656 0.443229 0
0.85687 0.446891 0
0.882414 0.450782 0
0.903517 0.454673 0
0.922759 0.458564 0
0.93843 0.462455 0
0.95198 0.466346 0
0.963363 0.470253 0
0.972305 0.473899 0
0.980163 0.477791 0
0.985199 0.480217 0
0.989593 0.48217 0
0 0.586191 0
0 0.570092 0
0.00805676 0.516869 0
0.0264591 0.502876 0
0.0538796 0.494575 0
0.088716 0.488258 0
0.131899 0.483391 0
0.179995 0.479255 0
0.231434 0.475837 0
0.284718 0.473411 0
0.338933 0.471702 0
0.392996 0.47097 0
0.446891 0.47097 0
0.499687 0.471458 0
0.550988 0.472679 0
0.600595 0.474388 0
0.648035 0.476326 0
0.692576 0.478767 0
0.733532 0.481682 0
0.770748 0.484611 0
0.805402 0.48777 0
0.836728 0.490929 0
0.864149 0.494331 0
0.889113 0.497993 0
0.909728 0.501411 0
0.927672 0.505089 0
0.943328 0.508782 0
0.955688 0.512459 0
0.966934 0.515892 0
0.974914 0.51957 0
0.982193 0.523003 0
0.986893 0.525216 0
0.991012 0.526696 0
0 0.633783 0
0 0.618402 0
0.00852979 0.565942 0
0.0274968 0.552224 0
0.0549325 0.544121 0
0.0897536 0.538231 0
0.13286 0.533562 0
0.180713 0.529641 0
0.232227 0.526452 0
0.285786 0.523995 0
0.340505 0.522515 0
0.395361 0.521294 0
0.450294 0.52105 0
0.504112 0.521538 0
0.55639 0.522271 0
0.606683 0.523751 0
0.654688 0.52546 0
0.69955 0.527672 0
0.741176 0.530129 0
0.778195 0.53283 0
0.812528 0.535775 0
0.844038 0.53872 0
0.870619 0.541909 0
0.894667 0.545098 0
0.915267 0.548287 0
0.932158 0.551736 0
0.947463 0.554925 0
0.959091 0.558358 0
0.969314 0.561547 0
0.977279 0.564721 0
0.983688 0.567895 0
0.988388 0.569848 0
0.991897 0.570825 0
0 0.679408 0
0 0.664912 0
0.0089723 0.614252 0
0.0285191 0.600824 0
0.0560616 0.593271 0
0.0911269 0.587655 0
0.134005 0.583505 0
0.181628 0.579858 0
0.233021 0.576928 0
0.286854 0.574487 0
0.342077 0.572778 0
0.397482 0.571557 0
0.453208 0.571069 0
0.50779 0.571313 0
0.560815 0.571801 0
0.612055 0.573022 0
0.660639 0.574487 0
0.705623 0.576196 0
0.74757 0.578393 0
0.785031 0.580575 0
0.818906 0.583261 0
0.85008 0.585946 0
0.876753 0.588632 0
0.899687 0.591562 0
0.920256 0.594491 0
0.936233 0.597665 0
0.950545 0.600595 0
0.962097 0.60351 0
0.971466 0.606195 0
0.979309 0.609125 0
0.98497 0.611566 0
0.989624 0.613031 0
0.992584 0.613519 0
0 0.722057 0
0 0.708782 0
0.0093843 0.660868 0
0.0294957 0.64828 0
0.0571145 0.641382 0
0.0925154 0.636149 0
0.135302 0.632349 0
0.182712 0.629267 0
0.234012 0.626413 0
0.287922 0.624247 0
0.34342 0.622538 0
0.399374 0.621332 0
0.45565 0.6206 0
0.510979 0.620356 0
0.564965 0.6206 0
0.616693 0.621561 0
0.665858 0.622782 0
0.711254 0.624247 0
0.753155 0.62594 0
0.791226 0.628077 0
0.824918 0.630213 0
0.855253 0.632593 0
0.882261 0.634974 0
0.904311 0.637339 0
0.923903 0.639963 0
0.939879 0.642329 0
0.953231 0.644709 0
0.964706 0.647089 0
0.973205 0.64947 0
0.980957 0.651606 0
0.986023 0.653498 0
0.9906 0.654459 0
0.993118 0.654215 0
0 0.762264 0
0 0.750469 0
0.00976577 0.70518 0
0.030396 0.693935 0
0.0582589 0.687633 0
0.0940566 0.683207 0
0.136599 0.679652 0
0.183978 0.676799 0
0.235004 0.674189 0
0.288991 0.672282 0
0.344549 0.670375 0
0.401038 0.669184 0
0.457588 0.668482 0
0.51368 0.668238 0
0.568383 0.668238 0
0.620844 0.668711 0
0.670375 0.669673 0
0.716197 0.670848 0
0.758328 0.672282 0
0.796597 0.673945 0
0.830167 0.675853 0
0.859937 0.677745 0
0.88687 0.679652 0
0.908263 0.681544 0
0.927047 0.683696 0
0.942916 0.685588 0
0.955535 0.687404 0
0.966766 0.689204 0
0.974685 0.690776 0
0.981857 0.692134 0
0.98677 0.693477 0
0.991043 0.693706 0
0.993454 0.692805 0
0 0.799969 0
0 0.788952 0
0.010132 0.747356 0
0.0312963 0.736904 0
0.0593118 0.730602 0
0.0954604 0.726787 0
0.138064 0.723857 0
0.185245 0.721386 0
0.23621 0.719356 0
0.290059 0.717556 0
0.345678 0.716197 0
0.402686 0.715084 0
0.459785 0.714183 0
0.516381 0.713954 0
0.571313 0.713726 0
0.624491 0.713954 0
0.674662 0.714397 0
0.720699 0.715526 0
0.762676 0.716426 0
0.8009 0.717556 0
0.834669 0.718898 0
0.863981 0.720256 0
0.890166 0.721599 0
0.911574 0.722957 0
0.929656 0.7243 0
0.945418 0.725658 0
0.957275 0.727001 0
0.967956 0.727901 0
0.975692 0.72903 0
0.982452 0.729702 0
0.987228 0.730159 0
0.991257 0.729931 0
0.993652 0.728588 0
0 0.833921 0
0 0.823972 0
0.0104677 0.786053 0
0.0321355 0.776333 0
0.0603647 0.77116 0
0.0968643 0.767636 0
0.139528 0.765164 0
0.186709 0.763088 0
0.2374 0.76144 0
0.291341 0.760189 0
0.34725 0.758953 0
0.404105 0.757916 0
0.461479 0.75729 0
0.518593 0.756878 0
0.573999 0.756466 0
0.627604 0.75668 0
0.678218 0.75668 0
0.724529 0.75729 0
0.7664 0.757702 0
0.804471 0.758541 0
0.838422 0.758953 0
0.867384 0.759991 0
0.892821 0.760815 0
0.914214 0.76144 0
0.93164 0.762264 0
0.947066 0.762875 0
0.958541 0.763302 0
0.968688 0.763714 0
0.976318 0.763912 0
0.982712 0.763912 0
0.987457 0.763912 0
0.991394 0.7635 0
0.993835 0.762264 0
0 0.864302 0
0 0.856062 0
0.0107881 0.82153 0
0.0329137 0.813092 0
0.0616159 0.808789 0
0.0984054 0.805783 0
0.141146 0.803723 0
0.188342 0.802213 0
0.238987 0.8009 0
0.292836 0.799588 0
0.348592 0.798657 0
0.405753 0.797711 0
0.463432 0.797162 0
0.520562 0.796597 0
0.576196 0.796201 0
0.629969 0.795789 0
0.680842 0.795789 0
0.727459 0.795789 0
0.769497 0.795987 0
0.807477 0.796201 0
0.841413 0.796399 0
0.869963 0.796597 0
0.894926 0.79678 0
0.91606 0.796963 0
0.932998 0.79678 0
0.947936 0.796963 0
0.959243 0.79678 0
0.969024 0.796399 0
0.976547 0.795987 0
0.98291 0.795789 0
0.98764 0.795575 0
0.991531 0.795163 0
0.994018 0.793927 0
0 0.89189 0
0 0.885161 0
0.0111696 0.854444 0
0.033753 0.847333 0
0.0629892 0.843671 0
0.100084 0.840848 0
0.142931 0.838972 0
0.190158 0.837476 0
0.24097 0.836347 0
0.294347 0.835233 0
0.350179 0.834287 0
0.407172 0.833158 0
0.464897 0.83241 0
0.522271 0.831662 0
0.578149 0.831098 0
0.631876 0.830533 0
0.682979 0.830167 0
0.729702 0.829786 0
0.771786 0.829419 0
0.809537 0.829221 0
0.843473 0.828855 0
0.87158 0.828473 0
0.896117 0.828107 0
0.91725 0.827543 0
0.933623 0.826978 0
0.948257 0.82623 0
0.959411 0.825467 0
0.969207 0.824918 0
0.976715 0.824537 0
0.983063 0.824155 0
0.987793 0.823972 0
0.991669 0.823606 0
0.994156 0.822293 0
0 0.915267 0
0 0.908934 0
0.0117647 0.883879 0
0.0346532 0.877073 0
0.0644694 0.873518 0
0.101915 0.87126 0
0.144717 0.86981 0
0.191974 0.868513 0
0.242756 0.867536 0
0.296056 0.866575 0
0.351751 0.865599 0
0.408591 0.86479 0
0.466346 0.863828 0
0.523751 0.86302 0
0.57937 0.862211 0
0.633295 0.861555 0
0.684398 0.860746 0
0.731273 0.859937 0
0.773236 0.859297 0
0.810849 0.858488 0
0.844419 0.857832 0
0.872389 0.85687 0
0.896651 0.855894 0
0.917388 0.854932 0
0.93373 0.853956 0
0.948333 0.853147 0
0.959564 0.852338 0
0.969314 0.85185 0
0.976883 0.851377 0
0.983169 0.850889 0
0.987945 0.850721 0
0.99176 0.850233 0
0.994308 0.849271 0
0 0.934554 0
0 0.929763 0
0.0122988 0.908141 0
0.0354925 0.902586 0
0.0660563 0.899809 0
0.103593 0.8981 0
0.14667 0.896773 0
0.193957 0.89572 0
0.244556 0.894789 0
0.297765 0.893996 0
0.353323 0.893202 0
0.41001 0.892287 0
0.467567 0.891493 0
0.524727 0.890562 0
0.580331 0.889647 0
0.634012 0.888716 0
0.685115 0.8878 0
0.731731 0.88687 0
0.773434 0.885817 0
0.811032 0.88452 0
0.844572 0.88307 0
0.872236 0.881605 0
0.896376 0.880156 0
0.91725 0.879026 0
0.933623 0.877882 0
0.948333 0.876921 0
0.95964 0.876112 0
0.969421 0.875303 0
0.977005 0.874983 0
0.983276 0.874495 0
0.988022 0.874006 0
0.991333 0.870451 0
0.993866 0.869322 0
0 0.949523 0
0 0.94583 0
0.0128481 0.92694 0
0.0362707 0.922652 0
0.0673075 0.92047 0
0.104997 0.918837 0
0.147967 0.91751 0
0.195056 0.916457 0
0.24535 0.915404 0
