luts/ra_seq_grade_v5.cube
TITLE "Generate by Resolve"
LUT_3D_SIZE 5
0 0 0
0.0912642 0 0
0.60473 0 0
0.866728 0 0
0.970733 0.00236515 0.000961318
0 0.185794 0
0.217517 0.113115 0
0.56936 0.128649 0
0.840665 0.157061 0
0.967895 0.189975 0
0 0.586191 0
0.231434 0.475837 0
0.648035 0.476326 0
0.909728 0.501411 0
0.991012 0.526696 0
0 0.89189 0
0.24097 0.836347 0
0.682979 0.830167 0
0.933623 0.826978 0
0.994156 0.822293 0
0 0.992767 0
0.252903 0.979995 0
0.673945 0.971862 0
0.930587 0.966278 3.0518e-05
0.993637 0.959411 0.000106813
0 0 0.122225
0.132708 0 0.14342
0.628305 0 0.355795
0.8766 0 0.448096
0.975647 0.000839246 0.52546
0 0.160632 0.200855
0.103593 0.118441 0.13904
0.372229 0.144717 0.158846
0.682261 0.177264 0.18706
0.904967 0.2112 0.215732
0 0.54583 0.272953
0.13286 0.467079 0.181445
0.462943 0.488014 0.191424
0.794751 0.511971 0.242161
0.951812 0.543389 0.262837
0 0.872068 0.329259
0.161273 0.821347 0.218112
0.488258 0.832609 0.208667
0.82623 0.824353 0.225071
0.967453 0.819471 0.263828
0 0.988998 0.373342
0.181445 0.971572 0.244358
0.499931 0.968353 0.223682
0.80766 0.965652 0.217517
0.965026 0.957671 0.23978
0 0 0.407401
0.268894 0 0.58497
0.666102 0 0.699779
0.895857 0 0.778607
0.982757 0.000991836 0.83917
0 0.16965 0.510735
0.114092 0.123766 0.429129
0.393942 0.148287 0.47219
0.707652 0.179446 0.525963
0.92047 0.2112 0.575708
0 0.554177 0.616449
0.138872 0.474144 0.51516
0.442267 0.502632 0.536019
0.754406 0.535775 0.56228
0.936339 0.560571 0.580575
0 0.877882 0.70338
0.162905 0.823972 0.587655
0.480705 0.831098 0.581064
0.777569 0.831662 0.578149
0.950469 0.826795 0.61767
0 0.988769 0.756878
0.178531 0.969589 0.6206
0.490929 0.966445 0.595956
0.773648 0.965576 0.586191
0.94699 0.95964 0.586923
0 0 0.684871
0.325658 0 0.826795
0.702922 0 0.888853
0.914611 0 0.932784
0.988357 0.00128176 0.962173
0 0.182895 0.755016
0.126696 0.133684 0.70045
0.418738 0.156573 0.752743
0.734874 0.186526 0.808591
0.933104 0.216129 0.851698
0 0.568872 0.853635
0.147967 0.487282 0.798093
0.458808 0.511971 0.823606
0.767849 0.5402 0.848142
0.939788 0.558846 0.858167
0 0.886473 0.919936
0.168017 0.829786 0.863172
0.485084 0.829969 0.85864
0.770947 0.831098 0.856214
0.936446 0.835782 0.857023
0 0.988693 0.945312
0.180163 0.968811 0.881117
0.491905 0.965179 0.866087
0.771572 0.964385 0.860426
0.931746 0.961547 0.853147
0 0 0.887922
0.371328 0 0.937804
0.737575 0 0.967788
0.930907 0.000183108 0.986664
0.992676 0.00161746 0.996323
0 0.198505 0.902983
0.141955 0.145373 0.881285
0.444938 0.166796 0.921096
0.760601 0.195239 0.95285
0.945113 0.222889 0.971115
0 0.586191 0.963439
0.15787 0.502388 0.947936
0.476081 0.523507 0.961852
0.780056 0.546578 0.971069
0.943023 0.559823 0.973098
0 0.89427 0.990082
0.174365 0.835981 0.975647
0.491173 0.829969 0.973205
0.775509 0.830533 0.972427
0.938521 0.835233 0.972702
0 0.989517 0.995544
0.184527 0.969818 0.981003
0.497749 0.965972 0.976089
0.775921 0.96463 0.97406
0.934356 0.96289 0.971908
