luts/SimpleArriLut.3dl
# Generated by Nuke for flame
# Dimensions 33x33x33
# Input bit depth 10
# Output bit depth 10
0 32 64 96 128 160 192 224 256 288 320 352 384 416 448 480 512 543 575 607 639 671 703 735 767 799 831 863 895 927 959 991 1023 
0 0 0
0 0 12
0 0 26
0 0 41
0 0 59
0 0 80
0 0 105
0 0 133
0 0 167
0 0 208
0 0 258
0 0 316
0 0 377
0 0 439
0 0 500
0 0 561
0 0 622
0 0 681
0 0 740
0 0 796
0 0 850
0 0 894
0 0 929
0 0 957
0 0 977
0 0 992
0 0 1002
0 0 1009
0 0 1013
0 0 1015
0 0 1017
0 0 1019
0 0 1023
0 12 0
0 12 12
0 12 26
0 12 41
0 12 59
0 12 80
0 12 105
0 12 133
0 12 167
0 12 208
0 12 258
0 12 316
0 12 377
0 12 439
0 12 500
0 12 561
0 12 622
0 12 681
0 12 740
0 12 796
0 12 850
0 12 894
0 12 929
0 12 957
0 12 977
0 12 992
0 12 1002
0 12 1009
0 12 1013
0 12 1015
0 12 1017
0 12 1019
0 12 1023
0 26 0
0 26 12
0 26 26
0 26 41
0 26 59
0 26 80
0 26 105
0 26 133
0 26 167
0 26 208
0 26 258
0 26 316
0 26 377
0 26 439
0 26 500
0 26 561
0 26 622
0 26 681
0 26 740
0 26 796
0 26 850
0 26 894
0 26 929
0 26 957
0 26 977
0 26 992
0 26 1002
0 26 1009
0 26 1013
0 26 1015
0 26 1017
0 26 1019
0 26 1023
0 41 0
0 41 12
0 41 26
0 41 41
0 41 59
0 41 80
0 41 105
0 41 133
0 41 167
0 41 208
0 41 258
0 41 316
0 41 377
0 41 439
0 41 500
0 41 561
0 41 622
0 41 681
0 41 740
0 41 796
0 41 850
0 41 894
0 41 929
0 41 957
0 41 977
0 41 992
0 41 1002
0 41 1009
0 41 1013
0 41 1015
0 41 1017
0 41 1019
0 41 1023
0 59 0
0 59 12
0 59 26
0 59 41
0 59 59
0 59 80
0 59 105
0 59 133
0 59 167
0 59 208
0 59 258
0 59 316
0 59 377
0 59 439
0 59 500
0 59 561
0 59 622
0 59 681
0 59 740
0 59 796
0 59 850
0 59 894
0 59 929
0 59 957
0 59 977
0 59 992
0 59 1002
0 59 1009
0 59 1013
0 59 1015
0 59 1017
0 59 1019
0 59 1023
0 80 0
0 80 12
0 80 26
0 80 41
0 80 59
0 80 80
0 80 105
0 80 133
0 80 167
0 80 208
0 80 258
0 80 316
0 80 377
0 80 439
0 80 500
0 80 561
0 80 622
0 80 681
0 80 740
0 80 796
0 80 850
0 80 894
0 80 929
0 80 957
0 80 977
0 80 992
0 80 1002
0 80 1009
0 80 1013
0 80 1015
0 80 1017
0 80 1019
0 80 1023
0 105 0
0 105 12
0 105 26
0 105 41
0 105 59
0 105 80
0 105 105
0 105 133
0 105 167
0 105 208
0 105 258
0 105 316
0 105 377
0 105 439
0 105 500
0 105 561
0 105 622
0 105 681
0 105 740
0 105 796
0 105 850
0 105 894
0 105 929
0 105 957
0 105 977
0 105 992
0 105 1002
0 105 1009
0 105 1013
0 105 1015
0 105 1017
0 105 1019
0 105 1023
0 133 0
0 133 12
0 133 26
0 133 41
0 133 59
0 133 80
0 133 105
0 133 133
0 133 167
0 133 208
0 133 258
0 133 316
0 133 377
0 133 439
0 133 500
0 133 561
0 133 622
0 133 681
0 133 740
0 133 796
0 133 850
0 133 894
0 133 929
0 133 957
0 133 977
0 133 992
0 133 1002
0 133 1009
0 133 1013
0 133 1015
0 133 1017
0 133 1019
0 133 1023
0 167 0
0 167 12
0 167 26
0 167 41
0 167 59
0 167 80
0 167 105
0 167 133
0 167 167
0 167 208
0 167 258
0 167 316
0 167 377
0 167 439
0 167 500
0 167 561
0 167 622
0 167 681
0 167 740
0 167 796
0 167 850
0 167 894
0 167 929
0 167 957
0 167 977
0 167 992
0 167 1002
0 167 1009
0 167 1013
0 167 1015
0 167 1017
0 167 1019
0 167 1023
0 208 0
0 208 12
0 208 26
0 208 41
0 208 59
0 208 80
0 208 105
0 208 133
0 208 167
0 208 208
0 208 258
0 208 316
0 208 377
0 208 439
0 208 500
0 208 561
0 208 622
0 208 681
0 208 740
0 208 796
0 208 850
0 208 894
0 208 929
0 208 957
0 208 977
0 208 992
0 208 1002
0 208 1009
0 208 1013
0 208 1015
0 208 1017
0 208 1019
0 208 1023
0 258 0
0 258 12
0 258 26
0 258 41
0 258 59
0 258 80
0 258 105
0 258 133
0 258 167
0 258 208
0 258 258
0 258 316
0 258 377
0 258 439
0 258 500
0 258 561
0 258 622
0 258 681
0 258 740
0 258 796
0 258 850
0 258 894
0 258 929
0 258 957
0 258 977
0 258 992
0 258 1002
0 258 1009
0 258 1013
0 258 1015
0 258 1017
0 258 1019
0 258 1023
0 316 0
0 316 12
0 316 26
0 316 41
0 316 59
0 316 80
0 316 105
0 316 133
0 316 167
0 316 208
0 316 258
0 316 316
0 316 377
0 316 439
0 316 500
0 316 561
0 316 622
0 316 681
0 316 740
0 316 796
0 316 850
0 316 894
0 316 929
0 316 957
0 316 977
0 316 992
0 316 1002
0 316 1009
0 316 1013
0 316 1015
0 316 1017
0 316 1019
0 316 1023
0 377 0
0 377 12
0 377 26
0 377 41
0 377 59
0 377 80
0 377 105
0 377 133
0 377 167
0 377 208
0 377 258
0 377 316
0 377 377
0 377 439
0 377 500
0 377 561
0 377 622
0 377 681
0 377 740
0 377 796
0 377 850
0 377 894
0 377 929
0 377 957
0 377 977
0 377 992
0 377 1002
0 377 1009
0 377 1013
0 377 1015
0 377 1017
0 377 1019
0 377 1023
0 439 0
0 439 12
0 439 26
0 439 41
0 439 59
0 439 80
0 439 105
0 439 133
0 439 167
0 439 208
0 439 258
0 439 316
0 439 377
0 439 439
0 439 500
0 439 561
0 439 622
0 439 681
0 439 740
0 439 796
0 439 850
0 439 894
0 439 929
0 439 957
0 439 977
0 439 992
0 439 1002
0 439 1009
0 439 1013
0 439 1015
0 439 1017
0 439 1019
0 439 1023
0 500 0
0 500 12
0 500 26
0 500 41
0 500 59
0 500 80
0 500 105
0 500 133
0 500 167
0 500 208
0 500 258
0 500 316
0 500 377
0 500 439
0 500 500
0 500 561
0 500 622
0 500 681
0 500 740
0 500 796
0 500 850
0 500 894
0 500 929
0 500 957
0 500 977
0 500 992
0 500 1002
0 500 1009
0 500 1013
0 500 1015
0 500 1017
0 500 1019
0 500 1023
0 561 0
0 561 12
0 561 26
0 561 41
0 561 59
0 561 80
0 561 105
0 561 133
0 561 167
0 561 208
0 561 258
0 561 316
0 561 377
0 561 439
0 561 500
0 561 561
0 561 622
0 561 681
0 561 740
0 561 796
0 561 850
0 561 894
0 561 929
0 561 957
0 561 977
0 561 992
0 561 1002
0 561 1009
0 561 1013
0 561 1015
0 561 1017
0 561 1019
0 561 1023
0 622 0
0 622 12
0 622 26
0 622 41
0 622 59
0 622 80
0 622 105
0 622 133
0 622 167
0 622 208
0 622 258
0 622 316
0 622 377
0 622 439
0 622 500
0 622 561
0 622 622
0 622 681
0 622 740
0 622 796
0 622 850
0 622 894
0 622 929
0 622 957
0 622 977
0 622 992
0 622 1002
0 622 1009
0 622 1013
0 622 1015
0 622 1017
0 622 1019
0 622 1023
0 681 0
0 681 12
0 681 26
0 681 41
0 681 59
0 681 80
0 681 105
0 681 133
0 681 167
0 681 208
0 681 258
0 681 316
0 681 377
0 681 439
0 681 500
0 681 561
0 681 622
0 681 681
0 681 740
0 681 796
0 681 850
0 681 894
0 681 929
0 681 957
0 681 977
0 681 992
0 681 1002
0 681 1009
0 681 1013
0 681 1015
0 681 1017
0 681 1019
0 681 1023
0 740 0
0 740 12
0 740 26
0 740 41
0 740 59
0 740 80
0 740 105
0 740 133
0 740 167
0 740 208
0 740 258
0 740 316
0 740 377
0 740 439
0 740 500
0 740 561
0 740 622
0 740 681
0 740 740
0 740 796
0 740 850
0 740 894
0 740 929
0 740 957
0 740 977
0 740 992
0 740 1002
0 740 1009
0 740 1013
0 740 1015
0 740 1017
0 740 1019
0 740 1023
0 796 0
0 796 12
0 796 26
0 796 41
0 796 59
0 796 80
0 796 105
0 796 133
0 796 167
0 796 208
0 796 258
0 796 316
0 796 377
0 796 439
0 796 500
0 796 561
0 796 622
0 796 681
0 796 740
0 796 796
0 796 850
0 796 894
0 796 929
0 796 957
0 796 977
0 796 992
0 796 1002
0 796 1009
0 796 1013
0 796 1015
0 796 1017
0 796 1019
0 796 1023
0 850 0
0 850 12
0 850 26
0 850 41
0 850 59
0 850 80
0 850 105
0 850 133
0 850 167
0 850 208
0 850 258
0 850 316
0 850 377
0 850 439
0 850 500
0 850 561
0 850 622
0 850 681
0 850 740
0 850 796
0 850 850
0 850 894
0 850 929
0 850 957
0 850 977
0 850 992
0 850 1002
0 850 1009
0 850 1013
0 850 1015
0 850 1017
0 850 1019
0 850 1023
0 894 0
0 894 12
0 894 26
0 894 41
0 894 59
0 894 80
0 894 105
0 894 133
0 894 167
0 894 208
0 894 258
0 894 316
0 894 377
0 894 439
0 894 500
0 894 561
0 894 622
0 894 681
0 894 740
0 894 796
0 894 850
0 894 894
0 894 929
0 894 957
0 894 977
0 894 992
0 894 1002
0 894 1009
0 894 1013
0 894 1015
0 894 1017
0 894 1019
0 894 1023
0 929 0
0 929 12
0 929 26
0 929 41
0 929 59
0 929 80
0 929 105
0 929 133
0 929 167
0 929 208
0 929 258
0 929 316
0 929 377
0 929 439
0 929 500
0 929 561
0 929 622
0 929 681
0 929 740
0 929 796
0 929 850
0 929 894
0 929 929
0 929 957
0 929 977
0 929 992
0 929 1002
0 929 1009
0 929 1013
0 929 1015
0 929 1017
0 929 1019
0 929 1023
0 957 0
0 957 12
0 957 26
0 957 41
0 957 59
0 957 80
0 957 105
0 957 133
0 957 167
0 957 208
0 957 258
0 957 316
0 957 377
0 957 439
0 957 500
0 957 561
0 957 622
0 957 681
0 957 740
0 957 796
0 957 850
0 957 894
0 957 929
0 957 957
0 957 977
0 957 992
0 957 1002
0 957 1009
0 957 1013
0 957 1015
0 957 1017
0 957 1019
0 957 1023
0 977 0
0 977 12
0 977 26
0 977 41
0 977 59
0 977 80
0 977 105
0 977 133
0 977 167
0 977 208
0 977 258
0 977 316
0 977 377
0 977 439
0 977 500
0 977 561
0 977 622
0 977 681
0 977 740
0 977 796
0 977 850
0 977 894
0 977 929
0 977 957
0 977 977
0 977 992
0 977 1002
0 977 1009
0 977 1013
0 977 1015
0 977 1017
0 977 1019
0 977 1023
0 992 0
0 992 12
0 992 26
0 992 41
0 992 59
0 992 80
0 992 105
0 992 133
0 992 167
0 992 208
0 992 258
0 992 316
0 992 377
0 992 439
0 992 500
0 992 561
0 992 622
0 992 681
0 992 740
0 992 796
0 992 850
0 992 894
0 992 929
0 992 957
0 992 977
0 992 992
0 992 1002
0 992 1009
0 992 1013
0 992 1015
0 992 1017
0 992 1019
0 992 1023
0 1002 0
0 1002 12
0 1002 26
0 1002 41
0 1002 59
0 1002 80
0 1002 105
0 1002 133
0 1002 167
0 1002 208
0 1002 258
0 1002 316
0 1002 377
0 1002 439
0 1002 500
0 1002 561
0 1002 622
0 1002 681
0 1002 740
0 1002 796
0 1002 850
0 1002 894
0 1002 929
0 1002 957
0 1002 977
0 1002 992
0 1002 1002
0 1002 1009
0 1002 1013
0 1002 1015
0 1002 1017
0 1002 1019
0 1002 1023
0 1009 0
0 1009 12
0 1009 26
0 1009 41
0 1009 59
0 1009 80
0 1009 105
0 1009 133
0 1009 167
