luts/SimpleArriLut.3dl
# Generated by Nuke for flame
# Dimensions 33x33x33
# Input bit depth 10
# Output bit depth 10
0 256 512 767 1023
0 0 0
0 0 167
0 0 622
0 0 977
0 0 1023
0 167 0
0 167 167
0 167 622
0 167 977
0 167 1023
0 622 0
0 622 167
0 622 622
0 622 977
0 622 1023
0 977 0
0 977 167
0 977 622
0 977 977
0 977 1023
0 1023 0
0 1023 167
0 1023 622
0 1023 977
0 1023 1023
167 0 0
167 0 167
167 0 622
167 0 977
167 0 1023
167 167 0
167 167 167
167 167 622
167 167 977
167 167 1023
167 622 0
167 622 167
167 622 622
167 622 977
167 622 1023
167 977 0
167 977 167
167 977 622
167 977 977
167 977 1023
167 1023 0
167 1023 167
167 1023 622
167 1023 977
167 1023 1023
622 0 0
622 0 167
622 0 622
622 0 977
622 0 1023
622 167 0
622 167 167
622 167 622
622 167 977
622 167 1023
622 622 0
622 622 167
622 622 622
622 622 977
622 622 1023
622 977 0
622 977 167
622 977 622
622 977 977
622 977 1023
622 1023 0
622 1023 167
622 1023 622
622 1023 977
622 1023 1023
977 0 0
977 0 167
977 0 622
977 0 977
977 0 1023
977 167 0
977 167 167
977 167 622
977 167 977
977 167 1023
977 622 0
977 622 167
977 622 622
977 622 977
977 622 1023
977 977 0
977 977 167
977 977 622
977 977 977
977 977 1023
977 1023 0
977 1023 167
977 1023 622
977 1023 977
977 1023 1023
1023 0 0
1023 0 167
1023 0 622
1023 0 977
1023 0 1023
1023 167 0
1023 167 167
1023 167 622
1023 167 977
1023 167 1023
1023 622 0
1023 622 167
1023 622 622
1023 622 977
1023 622 1023
1023 977 0
1023 977 167
1023 977 622
1023 977 977
1023 977 1023
1023 1023 0
1023 1023 167
1023 1023 622
1023 1023 977
1023 1023 1023
