luts/SimpleArriLut.3dl
# Generated by Nuke for flame
# Dimensions 33x33x33
# Input bit depth 10
# Output bit depth 10
0 128 256 384 512 639 767 895 1023
0 0 0
0 0 59
0 0 167
0 0 377
0 0 622
0 0 850
0 0 977
0 0 1013
0 0 1023
0 59 0
0 59 59
0 59 167
0 59 377
0 59 622
0 59 850
0 59 977
0 59 1013
0 59 1023
0 167 0
0 167 59
0 167 167
0 167 377
0 167 622
0 167 850
0 167 977
0 167 1013
0 167 1023
0 377 0
0 377 59
0 377 167
0 377 377
0 377 622
0 377 850
0 377 977
0 377 1013
0 377 1023
0 622 0
0 622 59
0 622 167
0 622 377
0 622 622
0 622 850
0 622 977
0 622 1013
0 622 1023
0 850 0
0 850 59
0 850 167
0 850 377
0 850 622
0 850 850
0 850 977
0 850 1013
0 850 1023
0 977 0
0 977 59
0 977 167
0 977 377
0 977 622
0 977 850
0 977 977
0 977 1013
0 977 1023
0 1013 0
0 1013 59
0 1013 167
0 1013 377
0 1013 622
0 1013 850
0 1013 977
0 1013 1013
0 1013 1023
0 1023 0
0 1023 59
0 1023 167
0 1023 377
0 1023 622
0 1023 850
0 1023 977
0 1023 1013
0 1023 1023
59 0 0
59 0 59
59 0 167
59 0 377
59 0 622
59 0 850
59 0 977
59 0 1013
59 0 1023
59 59 0
59 59 59
59 59 167
59 59 377
59 59 622
59 59 850
59 59 977
59 59 1013
59 59 1023
59 167 0
59 167 59
59 167 167
59 167 377
59 167 622
59 167 850
59 167 977
59 167 1013
59 167 1023
59 377 0
59 377 59
59 377 167
59 377 377
59 377 622
59 377 850
59 377 977
59 377 1013
59 377 1023
59 622 0
59 622 59
59 622 167
59 622 377
59 622 622
59 622 850
59 622 977
59 622 1013
59 622 1023
59 850 0
59 850 59
59 850 167
59 850 377
59 850 622
59 850 850
59 850 977
59 850 1013
59 850 1023
59 977 0
59 977 59
59 977 167
59 977 377
59 977 622
59 977 850
59 977 977
59 977 1013
59 977 1023
59 1013 0
59 1013 59
59 1013 167
59 1013 377
59 1013 622
59 1013 850
59 1013 977
59 1013 1013
59 1013 1023
59 1023 0
59 1023 59
59 1023 167
59 1023 377
59 1023 622
59 1023 850
59 1023 977
59 1023 1013
59 1023 1023
167 0 0
167 0 59
167 0 167
167 0 377
167 0 622
167 0 850
167 0 977
167 0 1013
167 0 1023
167 59 0
167 59 59
167 59 167
167 59 377
167 59 622
167 59 850
167 59 977
167 59 1013
167 59 1023
167 167 0
167 167 59
167 167 167
167 167 377
167 167 622
167 167 850
167 167 977
167 167 1013
167 167 1023
167 377 0
167 377 59
167 377 167
167 377 377
167 377 622
167 377 850
167 377 977
167 377 1013
167 377 1023
167 622 0
167 622 59
167 622 167
167 622 377
167 622 622
167 622 850
167 622 977
167 622 1013
167 622 1023
167 850 0
167 850 59
167 850 167
167 850 377
167 850 622
167 850 850
167 850 977
167 850 1013
167 850 1023
167 977 0
167 977 59
167 977 167
167 977 377
167 977 622
167 977 850
167 977 977
167 977 1013
167 977 1023
167 1013 0
167 1013 59
167 1013 167
167 1013 377
167 1013 622
167 1013 850
167 1013 977
167 1013 1013
167 1013 1023
167 1023 0
167 1023 59
167 1023 167
167 1023 377
167 1023 622
167 1023 850
167 1023 977
167 1023 1013
167 1023 1023
377 0 0
377 0 59
377 0 167
377 0 377
377 0 622
377 0 850
377 0 977
377 0 1013
377 0 1023
377 59 0
377 59 59
377 59 167
377 59 377
377 59 622
377 59 850
377 59 977
377 59 1013
377 59 1023
377 167 0
377 167 59
377 167 167
377 167 377
377 167 622
377 167 850
377 167 977
377 167 1013
377 167 1023
377 377 0
377 377 59
377 377 167
377 377 377
377 377 622
377 377 850
377 377 977
377 377 1013
377 377 1023
377 622 0
377 622 59
377 622 167
377 622 377
377 622 622
377 622 850
377 622 977
377 622 1013
377 622 1023
377 850 0
377 850 59
377 850 167
377 850 377
377 850 622
377 850 850
377 850 977
377 850 1013
377 850 1023
377 977 0
377 977 59
377 977 167
377 977 377
377 977 622
377 977 850
377 977 977
377 977 1013
377 977 1023
377 1013 0
377 1013 59
377 1013 167
377 1013 377
377 1013 622
377 1013 850
377 1013 977
377 1013 1013
377 1013 1023
377 1023 0
377 1023 59
377 1023 167
377 1023 377
377 1023 622
377 1023 850
377 1023 977
377 1023 1013
377 1023 1023
622 0 0
622 0 59
622 0 167
622 0 377
622 0 622
622 0 850
622 0 977
622 0 1013
622 0 1023
622 59 0
622 59 59
622 59 167
622 59 377
622 59 622
622 59 850
622 59 977
622 59 1013
622 59 1023
622 167 0
622 167 59
622 167 167
622 167 377
622 167 622
622 167 850
622 167 977
622 167 1013
622 167 1023
622 377 0
622 377 59
622 377 167
622 377 377
622 377 622
622 377 850
622 377 977
622 377 1013
622 377 1023
622 622 0
622 622 59
622 622 167
622 622 377
622 622 622
622 622 850
622 622 977
622 622 1013
622 622 1023
622 850 0
622 850 59
622 850 167
622 850 377
622 850 622
622 850 850
622 850 977
622 850 1013
622 850 1023
622 977 0
622 977 59
622 977 167
622 977 377
622 977 622
622 977 850
622 977 977
622 977 1013
622 977 1023
622 1013 0
622 1013 59
622 1013 167
622 1013 377
622 1013 622
622 1013 850
622 1013 977
622 1013 1013
622 1013 1023
622 1023 0
622 1023 59
622 1023 167
622 1023 377
622 1023 622
622 1023 850
622 1023 977
622 1023 1013
622 1023 1023
850 0 0
850 0 59
850 0 167
850 0 377
850 0 622
850 0 850
850 0 977
850 0 1013
850 0 1023
850 59 0
850 59 59
850 59 167
850 59 377
850 59 622
850 59 850
850 59 977
850 59 1013
850 59 1023
850 167 0
850 167 59
850 167 167
850 167 377
850 167 622
850 167 850
850 167 977
850 167 1013
850 167 1023
850 377 0
850 377 59
850 377 167
850 377 377
850 377 622
850 377 850
850 377 977
850 377 1013
850 377 1023
850 622 0
850 622 59
850 622 167
850 622 377
850 622 622
850 622 850
850 622 977
850 622 1013
850 622 1023
850 850 0
850 850 59
850 850 167
850 850 377
850 850 622
850 850 850
850 850 977
850 850 1013
850 850 1023
850 977 0
850 977 59
850 977 167
850 977 377
850 977 622
850 977 850
850 977 977
850 977 1013
850 977 1023
850 1013 0
850 1013 59
850 1013 167
850 1013 377
850 1013 622
850 1013 850
850 1013 977
850 1013 1013
850 1013 1023
850 1023 0
850 1023 59
850 1023 167
850 1023 377
850 1023 622
850 1023 850
850 1023 977
850 1023 1013
850 1023 1023
977 0 0
977 0 59
977 0 167
977 0 377
977 0 622
977 0 850
977 0 977
977 0 1013
977 0 1023
977 59 0
977 59 59
977 59 167
977 59 377
977 59 622
977 59 850
977 59 977
977 59 1013
977 59 1023
977 167 0
977 167 59
977 167 167
977 167 377
977 167 622
977 167 850
977 167 977
977 167 1013
977 167 1023
977 377 0
977 377 59
977 377 167
977 377 377
977 377 622
977 377 850
977 377 977
977 377 1013
977 377 1023
977 622 0
977 622 59
977 622 167
977 622 377
977 622 622
977 622 850
977 622 977
977 622 1013
977 622 1023
977 850 0
977 850 59
977 850 167
977 850 377
977 850 622
977 850 850
977 850 977
977 850 1013
977 850 1023
977 977 0
977 977 59
977 977 167
977 977 377
977 977 622
977 977 850
977 977 977
977 977 1013
977 977 1023
977 1013 0
977 1013 59
977 1013 167
977 1013 377
977 1013 622
977 1013 850
977 1013 977
977 1013 1013
977 1013 1023
977 1023 0
977 1023 59
977 1023 167
977 1023 377
977 1023 622
977 1023 850
977 1023 977
977 1023 1013
977 1023 1023
1013 0 0
1013 0 59
1013 0 167
1013 0 377
1013 0 622
1013 0 850
1013 0 977
1013 0 1013
1013 0 1023
1013 59 0
1013 59 59
1013 59 167
1013 59 377
1013 59 622
1013 59 850
1013 59 977
1013 59 1013
1013 59 1023
1013 167 0
1013 167 59
1013 167 167
1013 167 377
1013 167 622
1013 167 850
1013 167 977
1013 167 1013
1013 167 1023
1013 377 0
1013 377 59
1013 377 167
1013 377 377
1013 377 622
1013 377 850
1013 377 977
1013 377 1013
1013 377 1023
1013 622 0
1013 622 59
1013 622 167
1013 622 377
1013 622 622
1013 622 850
1013 622 977
1013 622 1013
1013 622 1023
1013 850 0
1013 850 59
1013 850 167
1013 850 377
1013 850 622
1013 850 850
1013 850 977
1013 850 1013
1013 850 1023
1013 977 0
1013 977 59
1013 977 167
1013 977 377
1013 977 622
1013 977 850
1013 977 977
1013 977 1013
1013 977 1023
1013 1013 0
1013 1013 59
1013 1013 167
1013 1013 377
1013 1013 622
1013 1013 850
1013 1013 977
1013 1013 1013
1013 1013 1023
1013 1023 0
1013 1023 59
1013 1023 167
1013 1023 377
1013 1023 622
1013 1023 850
1013 1023 977
1013 1023 1013
1013 1023 1023
1023 0 0
1023 0 59
1023 0 167
1023 0 377
1023 0 622
1023 0 850
1023 0 977
1023 0 1013
1023 0 1023
1023 59 0
1023 59 59
1023 59 167
1023 59 377
1023 59 622
1023 59 850
1023 59 977
1023 59 1013
1023 59 1023
1023 167 0
1023 167 59
1023 167 167
1023 167 377
1023 167 622
1023 167 850
1023 167 977
1023 167 1013
1023 167 1023
1023 377 0
1023 377 59
1023 377 167
1023 377 377
1023 377 622
1023 377 850
1023 377 977
1023 377 1013
1023 377 1023
1023 622 0
1023 622 59
1023 622 167
1023 622 377
1023 622 622
1023 622 850
1023 622 977
1023 622 1013
1023 622 1023
1023 850 0
1023 850 59
1023 850 167
1023 850 377
1023 850 622
1023 850 850
1023 850 977
1023 850 1013
1023 850 1023
1023 977 0
1023 977 59
1023 977 167
1023 977 377
1023 977 622
1023 977 850
1023 977 977
1023 977 1013
1023 977 1023
1023 1013 0
1023 1013 59
1023 1013 167
1023 1013 377
1023 1013 622
1023 1013 850
1023 1013 977
1023 1013 1013
1023 1013 1023
1023 1023 0
1023 1023 59
1023 1023 167
1023 1023 377
1023 1023 622
1023 1023 850
1023 1023 977
1023 1023 1013
1023 1023 1023
